app/src/main/assets/luts/clean.cube
TITLE "Lumi clean portrait LUT v3"
LUT_3D_SIZE 9
DOMAIN_MIN 0.0 0.0 0.0
DOMAIN_MAX 1.0 1.0 1.0
0.012000 0.008000 0.012000
0.142750 0.008000 0.012000
0.273500 0.008000 0.012000
0.404250 0.008000 0.012000
0.535000 0.008000 0.012000
0.653750 0.008000 0.012000
0.772500 0.008000 0.012000
0.891250 0.008000 0.012000
1.000000 0.008000 0.012000
0.012000 0.137500 0.012000
0.142750 0.137500 0.012000
0.273500 0.137500 0.012000
0.404250 0.137500 0.012000
0.535000 0.137500 0.012000
0.653750 0.137500 0.012000
0.772500 0.137500 0.012000
0.891250 0.137500 0.012000
1.000000 0.137500 0.012000
0.012000 0.267000 0.012000
0.142750 0.267000 0.012000
0.273500 0.267000 0.012000
0.404250 0.267000 0.012000
0.535000 0.267000 0.012000
0.653750 0.267000 0.012000
0.772500 0.267000 0.012000
0.891250 0.267000 0.012000
1.000000 0.267000 0.012000
0.012000 0.396500 0.012000
0.142750 0.396500 0.012000
0.273500 0.396500 0.012000
0.404250 0.396500 0.012000
0.535000 0.396500 0.012000
0.653750 0.396500 0.012000
0.772500 0.396500 0.012000
0.891250 0.396500 0.012000
1.000000 0.396500 0.012000
0.012000 0.526000 0.012000
0.142750 0.526000 0.012000
0.273500 0.526000 0.012000
0.404250 0.526000 0.012000
0.535000 0.526000 0.012000
0.653750 0.526000 0.012000
0.772500 0.526000 0.012000
0.891250 0.526000 0.012000
1.000000 0.526000 0.012000
0.012000 0.646500 0.012000
0.142750 0.646500 0.012000
0.273500 0.646500 0.012000
0.404250 0.646500 0.012000
0.535000 0.646500 0.012000
0.653750 0.646500 0.012000
0.772500 0.646500 0.012000
0.891250 0.646500 0.012000
1.000000 0.646500 0.012000
0.012000 0.767000 0.012000
0.142750 0.767000 0.012000
0.273500 0.767000 0.012000
0.404250 0.767000 0.012000
0.535000 0.767000 0.012000
0.653750 0.767000 0.012000
0.772500 0.767000 0.012000
0.891250 0.767000 0.012000
1.000000 0.767000 0.012000
0.012000 0.887500 0.012000
0.142750 0.887500 0.012000
0.273500 0.887500 0.012000
0.404250 0.887500 0.012000
0.535000 0.887500 0.012000
0.653750 0.887500 0.012000
0.772500 0.887500 0.012000
0.891250 0.887500 0.012000
1.000000 0.887500 0.012000
0.012000 1.000000 0.012000
0.142750 1.000000 0.012000
0.273500 1.000000 0.012000
0.404250 1.000000 0.012000
0.535000 1.000000 0.012000
0.653750 1.000000 0.012000
0.772500 1.000000 0.012000
0.891250 1.000000 0.012000
1.000000 1.000000 0.012000
0.012000 0.008000 0.140750
0.142750 0.008000 0.140750
0.273500 0.008000 0.140750
0.404250 0.008000 0.140750
0.535000 0.008000 0.140750
0.653750 0.008000 0.140750
0.772500 0.008000 0.140750
0.891250 0.008000 0.140750
1.000000 0.008000 0.140750
0.012000 0.137500 0.140750
0.142750 0.137500 0.140750
0.273500 0.137500 0.140750
0.404250 0.137500 0.140750
0.535000 0.137500 0.140750
0.653750 0.137500 0.140750
0.772500 0.137500 0.140750
0.891250 0.137500 0.140750
1.000000 0.137500 0.140750
0.012000 0.267000 0.140750
0.142750 0.267000 0.140750
0.273500 0.267000 0.140750
0.404250 0.267000 0.140750
0.535000 0.267000 0.140750
0.653750 0.267000 0.140750
0.772500 0.267000 0.140750
0.891250 0.267000 0.140750
1.000000 0.267000 0.140750
0.012000 0.396500 0.140750
0.142750 0.396500 0.140750
0.273500 0.396500 0.140750
0.404250 0.396500 0.140750
0.535000 0.396500 0.140750
0.653750 0.396500 0.140750
0.772500 0.396500 0.140750
0.891250 0.396500 0.140750
1.000000 0.396500 0.140750
0.012000 0.526000 0.140750
0.142750 0.526000 0.140750
0.273500 0.526000 0.140750
0.404250 0.526000 0.140750
0.535000 0.526000 0.140750
0.653750 0.526000 0.140750
0.772500 0.526000 0.140750
0.891250 0.526000 0.140750
1.000000 0.526000 0.140750
0.012000 0.646500 0.140750
0.142750 0.646500 0.140750
0.273500 0.646500 0.140750
0.404250 0.646500 0.140750
0.535000 0.646500 0.140750
0.653750 0.646500 0.140750
0.772500 0.646500 0.140750
0.891250 0.646500 0.140750
1.000000 0.646500 0.140750
0.012000 0.767000 0.140750
0.142750 0.767000 0.140750
0.273500 0.767000 0.140750
0.404250 0.767000 0.140750
0.535000 0.767000 0.140750
0.653750 0.767000 0.140750
0.772500 0.767000 0.140750
0.891250 0.767000 0.140750
1.000000 0.767000 0.140750
0.012000 0.887500 0.140750
0.142750 0.887500 0.140750
0.273500 0.887500 0.140750
0.404250 0.887500 0.140750
0.535000 0.887500 0.140750
0.653750 0.887500 0.140750
0.772500 0.887500 0.140750
0.891250 0.887500 0.140750
1.000000 0.887500 0.140750
0.012000 1.000000 0.140750
0.142750 1.000000 0.140750
0.273500 1.000000 0.140750
0.404250 1.000000 0.140750
0.535000 1.000000 0.140750
0.653750 1.000000 0.140750
0.772500 1.000000 0.140750
0.891250 1.000000 0.140750
1.000000 1.000000 0.140750
0.012000 0.008000 0.269500
0.142750 0.008000 0.269500
0.273500 0.008000 0.269500
0.404250 0.008000 0.269500
0.535000 0.008000 0.269500
0.653750 0.008000 0.269500
0.772500 0.008000 0.269500
0.891250 0.008000 0.269500
1.000000 0.008000 0.269500
0.012000 0.137500 0.269500
0.142750 0.137500 0.269500
0.273500 0.137500 0.269500
0.404250 0.137500 0.269500
0.535000 0.137500 0.269500
0.653750 0.137500 0.269500
0.772500 0.137500 0.269500
0.891250 0.137500 0.269500
1.000000 0.137500 0.269500
0.012000 0.267000 0.269500
0.142750 0.267000 0.269500
0.273500 0.267000 0.269500
0.404250 0.267000 0.269500
0.535000 0.267000 0.269500
0.653750 0.267000 0.269500
0.772500 0.267000 0.269500
0.891250 0.267000 0.269500
1.000000 0.267000 0.269500
0.012000 0.396500 0.269500
0.142750 0.396500 0.269500
0.273500 0.396500 0.269500
0.404250 0.396500 0.269500
0.535000 0.396500 0.269500
0.653750 0.396500 0.269500
0.772500 0.396500 0.269500
0.891250 0.396500 0.269500
1.000000 0.396500 0.269500
0.012000 0.526000 0.269500
0.142750 0.526000 0.269500
0.273500 0.526000 0.269500
0.404250 0.526000 0.269500
0.535000 0.526000 0.269500
0.653750 0.526000 0.269500
0.772500 0.526000 0.269500
0.891250 0.526000 0.269500
1.000000 0.526000 0.269500
0.012000 0.646500 0.269500
0.142750 0.646500 0.269500
0.273500 0.646500 0.269500
0.404250 0.646500 0.269500
0.535000 0.646500 0.269500
0.653750 0.646500 0.269500
0.772500 0.646500 0.269500
0.891250 0.646500 0.269500
1.000000 0.646500 0.269500
0.012000 0.767000 0.269500
0.142750 0.767000 0.269500
0.273500 0.767000 0.269500
0.404250 0.767000 0.269500
0.535000 0.767000 0.269500
0.653750 0.767000 0.269500
0.772500 0.767000 0.269500
0.891250 0.767000 0.269500
1.000000 0.767000 0.269500
0.012000 0.887500 0.269500
0.142750 0.887500 0.269500
0.273500 0.887500 0.269500
0.404250 0.887500 0.269500
0.535000 0.887500 0.269500
0.653750 0.887500 0.269500
0.772500 0.887500 0.269500
0.891250 0.887500 0.269500
1.000000 0.887500 0.269500
0.012000 1.000000 0.269500
0.142750 1.000000 0.269500
0.273500 1.000000 0.269500
0.404250 1.000000 0.269500
0.535000 1.000000 0.269500
0.653750 1.000000 0.269500
0.772500 1.000000 0.269500
0.891250 1.000000 0.269500
1.000000 1.000000 0.269500
0.012000 0.008000 0.398250
0.142750 0.008000 0.398250
0.273500 0.008000 0.398250
0.404250 0.008000 0.398250
0.535000 0.008000 0.398250
0.653750 0.008000 0.398250
0.772500 0.008000 0.398250
0.891250 0.008000 0.398250
1.000000 0.008000 0.398250
0.012000 0.137500 0.398250
0.142750 0.137500 0.398250
0.273500 0.137500 0.398250
0.404250 0.137500 0.398250
0.535000 0.137500 0.398250
0.653750 0.137500 0.398250
0.772500 0.137500 0.398250
0.891250 0.137500 0.398250
1.000000 0.137500 0.398250
0.012000 0.267000 0.398250
0.142750 0.267000 0.398250
0.273500 0.267000 0.398250
0.404250 0.267000 0.398250
0.535000 0.267000 0.398250
0.653750 0.267000 0.398250
0.772500 0.267000 0.398250
0.891250 0.267000 0.398250
1.000000 0.267000 0.398250
0.012000 0.396500 0.398250
0.142750 0.396500 0.398250
0.273500 0.396500 0.398250
0.404250 0.396500 0.398250
0.535000 0.396500 0.398250
0.653750 0.396500 0.398250
0.772500 0.396500 0.398250
0.891250 0.396500 0.398250
1.000000 0.396500 0.398250
0.012000 0.526000 0.398250
0.142750 0.526000 0.398250
0.273500 0.526000 0.398250
0.404250 0.526000 0.398250
0.535000 0.526000 0.398250
0.653750 0.526000 0.398250
0.772500 0.526000 0.398250
0.891250 0.526000 0.398250
1.000000 0.526000 0.398250
0.012000 0.646500 0.398250
0.142750 0.646500 0.398250
0.273500 0.646500 0.398250
0.404250 0.646500 0.398250
0.535000 0.646500 0.398250
0.653750 0.646500 0.398250
0.772500 0.646500 0.398250
0.891250 0.646500 0.398250
1.000000 0.646500 0.398250
0.012000 0.767000 0.398250
0.142750 0.767000 0.398250
0.273500 0.767000 0.398250
0.404250 0.767000 0.398250
0.535000 0.767000 0.398250
0.653750 0.767000 0.398250
0.772500 0.767000 0.398250
0.891250 0.767000 0.398250
1.000000 0.767000 0.398250
0.012000 0.887500 0.398250
0.142750 0.887500 0.398250
0.273500 0.887500 0.398250
0.404250 0.887500 0.398250
0.535000 0.887500 0.398250
0.653750 0.887500 0.398250
0.772500 0.887500 0.398250
0.891250 0.887500 0.398250
1.000000 0.887500 0.398250
0.012000 1.000000 0.398250
0.142750 1.000000 0.398250
0.273500 1.000000 0.398250
0.404250 1.000000 0.398250
0.535000 1.000000 0.398250
0.653750 1.000000 0.398250
0.772500 1.000000 0.398250
0.891250 1.000000 0.398250
1.000000 1.000000 0.398250
0.012000 0.008000 0.527000
0.142750 0.008000 0.527000
0.273500 0.008000 0.527000
0.404250 0.008000 0.527000
0.535000 0.008000 0.527000
0.653750 0.008000 0.527000
0.772500 0.008000 0.527000
0.891250 0.008000 0.527000
1.000000 0.008000 0.527000
0.012000 0.137500 0.527000
0.142750 0.137500 0.527000
0.273500 0.137500 0.527000
0.404250 0.137500 0.527000
0.535000 0.137500 0.527000
0.653750 0.137500 0.527000
0.772500 0.137500 0.527000
0.891250 0.137500 0.527000
1.000000 0.137500 0.527000
0.012000 0.267000 0.527000
0.142750 0.267000 0.527000
0.273500 0.267000 0.527000
0.404250 0.267000 0.527000
0.535000 0.267000 0.527000
0.653750 0.267000 0.527000
0.772500 0.267000 0.527000
0.891250 0.267000 0.527000
1.000000 0.267000 0.527000
0.012000 0.396500 0.527000
0.142750 0.396500 0.527000
0.273500 0.396500 0.527000
0.404250 0.396500 0.527000
0.535000 0.396500 0.527000
0.653750 0.396500 0.527000
0.772500 0.396500 0.527000
0.891250 0.396500 0.527000
1.000000 0.396500 0.527000
0.012000 0.526000 0.527000
0.142750 0.526000 0.527000
0.273500 0.526000 0.527000
0.404250 0.526000 0.527000
0.535000 0.526000 0.527000
0.653750 0.526000 0.527000
0.772500 0.526000 0.527000
0.891250 0.526000 0.527000
1.000000 0.526000 0.527000
0.012000 0.646500 0.527000
0.142750 0.646500 0.527000
0.273500 0.646500 0.527000
0.404250 0.646500 0.527000
0.535000 0.646500 0.527000
0.653750 0.646500 0.527000
0.772500 0.646500 0.527000
0.891250 0.646500 0.527000
1.000000 0.646500 0.527000
0.012000 0.767000 0.527000
0.142750 0.767000 0.527000
0.273500 0.767000 0.527000
0.404250 0.767000 0.527000
0.535000 0.767000 0.527000
0.653750 0.767000 0.527000
0.772500 0.767000 0.527000
0.891250 0.767000 0.527000
1.000000 0.767000 0.527000
0.012000 0.887500 0.527000
0.142750 0.887500 0.527000
0.273500 0.887500 0.527000
0.404250 0.887500 0.527000
0.535000 0.887500 0.527000
0.653750 0.887500 0.527000
0.772500 0.887500 0.527000
0.891250 0.887500 0.527000
1.000000 0.887500 0.527000
0.012000 1.000000 0.527000
0.142750 1.000000 0.527000
0.273500 1.000000 0.527000
0.404250 1.000000 0.527000
0.535000 1.000000 0.527000
0.653750 1.000000 0.527000
0.772500 1.000000 0.527000
0.891250 1.000000 0.527000
1.000000 1.000000 0.527000
0.012000 0.008000 0.649750
0.142750 0.008000 0.649750
0.273500 0.008000 0.649750
0.404250 0.008000 0.649750
0.535000 0.008000 0.649750
0.653750 0.008000 0.649750
0.772500 0.008000 0.649750
0.891250 0.008000 0.649750
1.000000 0.008000 0.649750
0.012000 0.137500 0.649750
0.142750 0.137500 0.649750
0.273500 0.137500 0.649750
0.404250 0.137500 0.649750
0.535000 0.137500 0.649750
0.653750 0.137500 0.649750
0.772500 0.137500 0.649750
0.891250 0.137500 0.649750
1.000000 0.137500 0.649750
0.012000 0.267000 0.649750
0.142750 0.267000 0.649750
0.273500 0.267000 0.649750
0.404250 0.267000 0.649750
0.535000 0.267000 0.649750
0.653750 0.267000 0.649750
0.772500 0.267000 0.649750
0.891250 0.267000 0.649750
1.000000 0.267000 0.649750
0.012000 0.396500 0.649750
0.142750 0.396500 0.649750
0.273500 0.396500 0.649750
0.404250 0.396500 0.649750
0.535000 0.396500 0.649750
0.653750 0.396500 0.649750
0.772500 0.396500 0.649750
0.891250 0.396500 0.649750
1.000000 0.396500 0.649750
0.012000 0.526000 0.649750
0.142750 0.526000 0.649750
0.273500 0.526000 0.649750
0.404250 0.526000 0.649750
0.535000 0.526000 0.649750
0.653750 0.526000 0.649750
0.772500 0.526000 0.649750
0.891250 0.526000 0.649750
1.000000 0.526000 0.649750
0.012000 0.646500 0.649750
0.142750 0.646500 0.649750
0.273500 0.646500 0.649750
0.404250 0.646500 0.649750
0.535000 0.646500 0.649750
0.653750 0.646500 0.649750
0.772500 0.646500 0.649750
0.891250 0.646500 0.649750
1.000000 0.646500 0.649750
0.012000 0.767000 0.649750
0.142750 0.767000 0.649750
0.273500 0.767000 0.649750
0.404250 0.767000 0.649750
0.535000 0.767000 0.649750
0.653750 0.767000 0.649750
0.772500 0.767000 0.649750
0.891250 0.767000 0.649750
1.000000 0.767000 0.649750
0.012000 0.887500 0.649750
0.142750 0.887500 0.649750
0.273500 0.887500 0.649750
0.404250 0.887500 0.649750
0.535000 0.887500 0.649750
0.653750 0.887500 0.649750
0.772500 0.887500 0.649750
0.891250 0.887500 0.649750
1.000000 0.887500 0.649750
0.012000 1.000000 0.649750
0.142750 1.000000 0.649750
0.273500 1.000000 0.649750
0.404250 1.000000 0.649750
0.535000 1.000000 0.649750
0.653750 1.000000 0.649750
0.772500 1.000000 0.649750
0.891250 1.000000 0.649750
1.000000 1.000000 0.649750
0.012000 0.008000 0.772500
0.142750 0.008000 0.772500
0.273500 0.008000 0.772500
0.404250 0.008000 0.772500
0.535000 0.008000 0.772500
0.653750 0.008000 0.772500
0.772500 0.008000 0.772500
0.891250 0.008000 0.772500
1.000000 0.008000 0.772500
0.012000 0.137500 0.772500
0.142750 0.137500 0.772500
0.273500 0.137500 0.772500
0.404250 0.137500 0.772500
0.535000 0.137500 0.772500
0.653750 0.137500 0.772500
0.772500 0.137500 0.772500
0.891250 0.137500 0.772500
1.000000 0.137500 0.772500
0.012000 0.267000 0.772500
0.142750 0.267000 0.772500
0.273500 0.267000 0.772500
0.404250 0.267000 0.772500
0.535000 0.267000 0.772500
0.653750 0.267000 0.772500
0.772500 0.267000 0.772500
0.891250 0.267000 0.772500
1.000000 0.267000 0.772500
0.012000 0.396500 0.772500
0.142750 0.396500 0.772500
0.273500 0.396500 0.772500
0.404250 0.396500 0.772500
0.535000 0.396500 0.772500
0.653750 0.396500 0.772500
0.772500 0.396500 0.772500
0.891250 0.396500 0.772500
1.000000 0.396500 0.772500
0.012000 0.526000 0.772500
0.142750 0.526000 0.772500
0.273500 0.526000 0.772500
0.404250 0.526000 0.772500
0.535000 0.526000 0.772500
0.653750 0.526000 0.772500
0.772500 0.526000 0.772500
0.891250 0.526000 0.772500
1.000000 0.526000 0.772500
0.012000 0.646500 0.772500
0.142750 0.646500 0.772500
0.273500 0.646500 0.772500
0.404250 0.646500 0.772500
0.535000 0.646500 0.772500
0.653750 0.646500 0.772500
0.772500 0.646500 0.772500
0.891250 0.646500 0.772500
1.000000 0.646500 0.772500
0.012000 0.767000 0.772500
0.142750 0.767000 0.772500
0.273500 0.767000 0.772500
0.404250 0.767000 0.772500
0.535000 0.767000 0.772500
0.653750 0.767000 0.772500
0.772500 0.767000 0.772500
0.891250 0.767000 0.772500
1.000000 0.767000 0.772500
0.012000 0.887500 0.772500
0.142750 0.887500 0.772500
0.273500 0.887500 0.772500
0.404250 0.887500 0.772500
0.535000 0.887500 0.772500
0.653750 0.887500 0.772500
0.772500 0.887500 0.772500
0.891250 0.887500 0.772500
1.000000 0.887500 0.772500
0.012000 1.000000 0.772500
0.142750 1.000000 0.772500
0.273500 1.000000 0.772500
0.404250 1.000000 0.772500
0.535000 1.000000 0.772500
0.653750 1.000000 0.772500
0.772500 1.000000 0.772500
0.891250 1.000000 0.772500
1.000000 1.000000 0.772500
0.012000 0.008000 0.895250
0.142750 0.008000 0.895250
0.273500 0.008000 0.895250
0.404250 0.008000 0.895250
0.535000 0.008000 0.895250
0.653750 0.008000 0.895250
0.772500 0.008000 0.895250
0.891250 0.008000 0.895250
1.000000 0.008000 0.895250
0.012000 0.137500 0.895250
0.142750 0.137500 0.895250
0.273500 0.137500 0.895250
0.404250 0.137500 0.895250
0.535000 0.137500 0.895250
0.653750 0.137500 0.895250
0.772500 0.137500 0.895250
0.891250 0.137500 0.895250
1.000000 0.137500 0.895250
0.012000 0.267000 0.895250
0.142750 0.267000 0.895250
0.273500 0.267000 0.895250
0.404250 0.267000 0.895250
0.535000 0.267000 0.895250
0.653750 0.267000 0.895250
0.772500 0.267000 0.895250
0.891250 0.267000 0.895250
1.000000 0.267000 0.895250
0.012000 0.396500 0.895250
0.142750 0.396500 0.895250
0.273500 0.396500 0.895250
0.404250 0.396500 0.895250
0.535000 0.396500 0.895250
0.653750 0.396500 0.895250
0.772500 0.396500 0.895250
0.891250 0.396500 0.895250
1.000000 0.396500 0.895250
0.012000 0.526000 0.895250
0.142750 0.526000 0.895250
0.273500 0.526000 0.895250
0.404250 0.526000 0.895250
0.535000 0.526000 0.895250
0.653750 0.526000 0.895250
0.772500 0.526000 0.895250
0.891250 0.526000 0.895250
1.000000 0.526000 0.895250
0.012000 0.646500 0.895250
0.142750 0.646500 0.895250
0.273500 0.646500 0.895250
0.404250 0.646500 0.895250
0.535000 0.646500 0.895250
0.653750 0.646500 0.895250
0.772500 0.646500 0.895250
0.891250 0.646500 0.895250
1.000000 0.646500 0.895250
0.012000 0.767000 0.895250
0.142750 0.767000 0.895250
0.273500 0.767000 0.895250
0.404250 0.767000 0.895250
0.535000 0.767000 0.895250
0.653750 0.767000 0.895250
0.772500 0.767000 0.895250
0.891250 0.767000 0.895250
1.000000 0.767000 0.895250
0.012000 0.887500 0.895250
0.142750 0.887500 0.895250
0.273500 0.887500 0.895250
0.404250 0.887500 0.895250
0.535000 0.887500 0.895250
0.653750 0.887500 0.895250
0.772500 0.887500 0.895250
0.891250 0.887500 0.895250
1.000000 0.887500 0.895250
0.012000 1.000000 0.895250
0.142750 1.000000 0.895250
0.273500 1.000000 0.895250
0.404250 1.000000 0.895250
0.535000 1.000000 0.895250
0.653750 1.000000 0.895250
0.772500 1.000000 0.895250
0.891250 1.000000 0.895250
1.000000 1.000000 0.895250
0.012000 0.008000 1.000000
0.142750 0.008000 1.000000
0.273500 0.008000 1.000000
0.404250 0.008000 1.000000
0.535000 0.008000 1.000000
0.653750 0.008000 1.000000
0.772500 0.008000 1.000000
0.891250 0.008000 1.000000
1.000000 0.008000 1.000000
0.012000 0.137500 1.000000
0.142750 0.137500 1.000000
0.273500 0.137500 1.000000
0.404250 0.137500 1.000000
0.535000 0.137500 1.000000
0.653750 0.137500 1.000000
0.772500 0.137500 1.000000
0.891250 0.137500 1.000000
1.000000 0.137500 1.000000
0.012000 0.267000 1.000000
0.142750 0.267000 1.000000
0.273500 0.267000 1.000000
0.404250 0.267000 1.000000
0.535000 0.267000 1.000000
0.653750 0.267000 1.000000
0.772500 0.267000 1.000000
0.891250 0.267000 1.000000
1.000000 0.267000 1.000000
0.012000 0.396500 1.000000
0.142750 0.396500 1.000000
0.273500 0.396500 1.000000
0.404250 0.396500 1.000000
0.535000 0.396500 1.000000
0.653750 0.396500 1.000000
0.772500 0.396500 1.000000
0.891250 0.396500 1.000000
1.000000 0.396500 1.000000
0.012000 0.526000 1.000000
0.142750 0.526000 1.000000
0.273500 0.526000 1.000000
0.404250 0.526000 1.000000
0.535000 0.526000 1.000000
0.653750 0.526000 1.000000
0.772500 0.526000 1.000000
0.891250 0.526000 1.000000
1.000000 0.526000 1.000000
0.012000 0.646500 1.000000
0.142750 0.646500 1.000000
0.273500 0.646500 1.000000
0.404250 0.646500 1.000000
0.535000 0.646500 1.000000
0.653750 0.646500 1.000000
0.772500 0.646500 1.000000
0.891250 0.646500 1.000000
1.000000 0.646500 1.000000
0.012000 0.767000 1.000000
0.142750 0.767000 1.000000
0.273500 0.767000 1.000000
0.404250 0.767000 1.000000
0.535000 0.767000 1.000000
0.653750 0.767000 1.000000
0.772500 0.767000 1.000000
0.891250 0.767000 1.000000
1.000000 0.767000 1.000000
0.012000 0.887500 1.000000
0.142750 0.887500 1.000000
0.273500 0.887500 1.000000
0.404250 0.887500 1.000000
0.535000 0.887500 1.000000
0.653750 0.887500 1.000000
0.772500 0.887500 1.000000
0.891250 0.887500 1.000000
1.000000 0.887500 1.000000
0.012000 1.000000 1.000000
0.142750 1.000000 1.000000
0.273500 1.000000 1.000000
0.404250 1.000000 1.000000
0.535000 1.000000 1.000000
0.653750 1.000000 1.000000
0.772500 1.000000 1.000000
0.891250 1.000000 1.000000
1.000000 1.000000 1.000000
