app/src/main/assets/luts/cool_white.cube
TITLE "Lumi cool_white portrait LUT v3"
LUT_3D_SIZE 9
DOMAIN_MIN 0.0 0.0 0.0
DOMAIN_MAX 1.0 1.0 1.0
0.025000 0.030588 0.074256
0.143342 0.030588 0.074256
0.281592 0.030588 0.074256
0.419842 0.030588 0.074256
0.558092 0.030588 0.074256
0.675798 0.030588 0.074256
0.790048 0.030588 0.074256
0.904298 0.030588 0.074256
1.000000 0.030588 0.074256
0.025000 0.167838 0.074256
0.143342 0.167838 0.074256
0.281592 0.167838 0.074256
0.419842 0.167838 0.074256
0.558092 0.167838 0.074256
0.675798 0.167838 0.074256
0.790048 0.167838 0.074256
0.904298 0.167838 0.074256
1.000000 0.167838 0.074256
0.025000 0.305088 0.074256
0.143342 0.305088 0.074256
0.281592 0.305088 0.074256
0.419842 0.305088 0.074256
0.558092 0.305088 0.074256
0.675798 0.305088 0.074256
0.790048 0.305088 0.074256
0.904298 0.305088 0.074256
1.000000 0.305088 0.074256
0.025000 0.442338 0.074256
0.143342 0.442338 0.074256
0.281592 0.442338 0.074256
0.419842 0.442338 0.074256
0.558092 0.442338 0.074256
0.675798 0.442338 0.074256
0.790048 0.442338 0.074256
0.904298 0.442338 0.074256
1.000000 0.442338 0.074256
0.025000 0.578508 0.074256
0.143342 0.578508 0.074256
0.281592 0.578508 0.074256
0.419842 0.578508 0.074256
0.558092 0.578508 0.074256
0.675798 0.578508 0.074256
0.790048 0.578508 0.074256
0.904298 0.578508 0.074256
1.000000 0.578508 0.074256
0.025000 0.693258 0.074256
0.143342 0.693258 0.074256
0.281592 0.693258 0.074256
0.419842 0.693258 0.074256
0.558092 0.693258 0.074256
0.675798 0.693258 0.074256
0.790048 0.693258 0.074256
0.904298 0.693258 0.074256
1.000000 0.693258 0.074256
0.025000 0.808008 0.074256
0.143342 0.808008 0.074256
0.281592 0.808008 0.074256
0.419842 0.808008 0.074256
0.558092 0.808008 0.074256
0.675798 0.808008 0.074256
0.790048 0.808008 0.074256
0.904298 0.808008 0.074256
1.000000 0.808008 0.074256
0.025000 0.922758 0.074256
0.143342 0.922758 0.074256
0.281592 0.922758 0.074256
0.419842 0.922758 0.074256
0.558092 0.922758 0.074256
0.675798 0.922758 0.074256
0.790048 0.922758 0.074256
0.904298 0.922758 0.074256
1.000000 0.922758 0.074256
0.025000 1.000000 0.074256
0.143342 1.000000 0.074256
0.281592 1.000000 0.074256
0.419842 1.000000 0.074256
0.558092 1.000000 0.074256
0.675798 1.000000 0.074256
0.790048 1.000000 0.074256
0.904298 1.000000 0.074256
1.000000 1.000000 0.074256
0.025000 0.030588 0.213256
0.143342 0.030588 0.213256
0.281592 0.030588 0.213256
0.419842 0.030588 0.213256
0.558092 0.030588 0.213256
0.675798 0.030588 0.213256
0.790048 0.030588 0.213256
0.904298 0.030588 0.213256
1.000000 0.030588 0.213256
0.025000 0.167838 0.213256
0.143342 0.167838 0.213256
0.281592 0.167838 0.213256
0.419842 0.167838 0.213256
0.558092 0.167838 0.213256
0.675798 0.167838 0.213256
0.790048 0.167838 0.213256
0.904298 0.167838 0.213256
1.000000 0.167838 0.213256
0.025000 0.305088 0.213256
0.143342 0.305088 0.213256
0.281592 0.305088 0.213256
0.419842 0.305088 0.213256
0.558092 0.305088 0.213256
0.675798 0.305088 0.213256
0.790048 0.305088 0.213256
0.904298 0.305088 0.213256
1.000000 0.305088 0.213256
0.025000 0.442338 0.213256
0.143342 0.442338 0.213256
0.281592 0.442338 0.213256
0.419842 0.442338 0.213256
0.558092 0.442338 0.213256
0.675798 0.442338 0.213256
0.790048 0.442338 0.213256
0.904298 0.442338 0.213256
1.000000 0.442338 0.213256
0.025000 0.578508 0.213256
0.143342 0.578508 0.213256
0.281592 0.578508 0.213256
0.419842 0.578508 0.213256
0.558092 0.578508 0.213256
0.675798 0.578508 0.213256
0.790048 0.578508 0.213256
0.904298 0.578508 0.213256
1.000000 0.578508 0.213256
0.025000 0.693258 0.213256
0.143342 0.693258 0.213256
0.281592 0.693258 0.213256
0.419842 0.693258 0.213256
0.558092 0.693258 0.213256
0.675798 0.693258 0.213256
0.790048 0.693258 0.213256
0.904298 0.693258 0.213256
1.000000 0.693258 0.213256
0.025000 0.808008 0.213256
0.143342 0.808008 0.213256
0.281592 0.808008 0.213256
0.419842 0.808008 0.213256
0.558092 0.808008 0.213256
0.675798 0.808008 0.213256
0.790048 0.808008 0.213256
0.904298 0.808008 0.213256
1.000000 0.808008 0.213256
0.025000 0.922758 0.213256
0.143342 0.922758 0.213256
0.281592 0.922758 0.213256
0.419842 0.922758 0.213256
0.558092 0.922758 0.213256
0.675798 0.922758 0.213256
0.790048 0.922758 0.213256
0.904298 0.922758 0.213256
1.000000 0.922758 0.213256
0.025000 1.000000 0.213256
0.143342 1.000000 0.213256
0.281592 1.000000 0.213256
0.419842 1.000000 0.213256
0.558092 1.000000 0.213256
0.675798 1.000000 0.213256
0.790048 1.000000 0.213256
0.904298 1.000000 0.213256
1.000000 1.000000 0.213256
0.025000 0.030588 0.352256
0.143342 0.030588 0.352256
0.281592 0.030588 0.352256
0.419842 0.030588 0.352256
0.558092 0.030588 0.352256
0.675798 0.030588 0.352256
0.790048 0.030588 0.352256
0.904298 0.030588 0.352256
1.000000 0.030588 0.352256
0.025000 0.167838 0.352256
0.143342 0.167838 0.352256
0.281592 0.167838 0.352256
0.419842 0.167838 0.352256
0.558092 0.167838 0.352256
0.675798 0.167838 0.352256
0.790048 0.167838 0.352256
0.904298 0.167838 0.352256
1.000000 0.167838 0.352256
0.025000 0.305088 0.352256
0.143342 0.305088 0.352256
0.281592 0.305088 0.352256
0.419842 0.305088 0.352256
0.558092 0.305088 0.352256
0.675798 0.305088 0.352256
0.790048 0.305088 0.352256
0.904298 0.305088 0.352256
1.000000 0.305088 0.352256
0.025000 0.442338 0.352256
0.143342 0.442338 0.352256
0.281592 0.442338 0.352256
0.419842 0.442338 0.352256
0.558092 0.442338 0.352256
0.675798 0.442338 0.352256
0.790048 0.442338 0.352256
0.904298 0.442338 0.352256
1.000000 0.442338 0.352256
0.025000 0.578508 0.352256
0.143342 0.578508 0.352256
0.281592 0.578508 0.352256
0.419842 0.578508 0.352256
0.558092 0.578508 0.352256
0.675798 0.578508 0.352256
0.790048 0.578508 0.352256
0.904298 0.578508 0.352256
1.000000 0.578508 0.352256
0.025000 0.693258 0.352256
0.143342 0.693258 0.352256
0.281592 0.693258 0.352256
0.419842 0.693258 0.352256
0.558092 0.693258 0.352256
0.675798 0.693258 0.352256
0.790048 0.693258 0.352256
0.904298 0.693258 0.352256
1.000000 0.693258 0.352256
0.025000 0.808008 0.352256
0.143342 0.808008 0.352256
0.281592 0.808008 0.352256
0.419842 0.808008 0.352256
0.558092 0.808008 0.352256
0.675798 0.808008 0.352256
0.790048 0.808008 0.352256
0.904298 0.808008 0.352256
1.000000 0.808008 0.352256
0.025000 0.922758 0.352256
0.143342 0.922758 0.352256
0.281592 0.922758 0.352256
0.419842 0.922758 0.352256
0.558092 0.922758 0.352256
0.675798 0.922758 0.352256
0.790048 0.922758 0.352256
0.904298 0.922758 0.352256
1.000000 0.922758 0.352256
0.025000 1.000000 0.352256
0.143342 1.000000 0.352256
0.281592 1.000000 0.352256
0.419842 1.000000 0.352256
0.558092 1.000000 0.352256
0.675798 1.000000 0.352256
0.790048 1.000000 0.352256
0.904298 1.000000 0.352256
1.000000 1.000000 0.352256
0.025000 0.030588 0.491256
0.143342 0.030588 0.491256
0.281592 0.030588 0.491256
0.419842 0.030588 0.491256
0.558092 0.030588 0.491256
0.675798 0.030588 0.491256
0.790048 0.030588 0.491256
0.904298 0.030588 0.491256
1.000000 0.030588 0.491256
0.025000 0.167838 0.491256
0.143342 0.167838 0.491256
0.281592 0.167838 0.491256
0.419842 0.167838 0.491256
0.558092 0.167838 0.491256
0.675798 0.167838 0.491256
0.790048 0.167838 0.491256
0.904298 0.167838 0.491256
1.000000 0.167838 0.491256
0.025000 0.305088 0.491256
0.143342 0.305088 0.491256
0.281592 0.305088 0.491256
0.419842 0.305088 0.491256
0.558092 0.305088 0.491256
0.675798 0.305088 0.491256
0.790048 0.305088 0.491256
0.904298 0.305088 0.491256
1.000000 0.305088 0.491256
0.025000 0.442338 0.491256
0.143342 0.442338 0.491256
0.281592 0.442338 0.491256
0.419842 0.442338 0.491256
0.558092 0.442338 0.491256
0.675798 0.442338 0.491256
0.790048 0.442338 0.491256
0.904298 0.442338 0.491256
1.000000 0.442338 0.491256
0.025000 0.578508 0.491256
0.143342 0.578508 0.491256
0.281592 0.578508 0.491256
0.419842 0.578508 0.491256
0.558092 0.578508 0.491256
0.675798 0.578508 0.491256
0.790048 0.578508 0.491256
0.904298 0.578508 0.491256
1.000000 0.578508 0.491256
0.025000 0.693258 0.491256
0.143342 0.693258 0.491256
0.281592 0.693258 0.491256
0.419842 0.693258 0.491256
0.558092 0.693258 0.491256
0.675798 0.693258 0.491256
0.790048 0.693258 0.491256
0.904298 0.693258 0.491256
1.000000 0.693258 0.491256
0.025000 0.808008 0.491256
0.143342 0.808008 0.491256
0.281592 0.808008 0.491256
0.419842 0.808008 0.491256
0.558092 0.808008 0.491256
0.675798 0.808008 0.491256
0.790048 0.808008 0.491256
0.904298 0.808008 0.491256
1.000000 0.808008 0.491256
0.025000 0.922758 0.491256
0.143342 0.922758 0.491256
0.281592 0.922758 0.491256
0.419842 0.922758 0.491256
0.558092 0.922758 0.491256
0.675798 0.922758 0.491256
0.790048 0.922758 0.491256
0.904298 0.922758 0.491256
1.000000 0.922758 0.491256
0.025000 1.000000 0.491256
0.143342 1.000000 0.491256
0.281592 1.000000 0.491256
0.419842 1.000000 0.491256
0.558092 1.000000 0.491256
0.675798 1.000000 0.491256
0.790048 1.000000 0.491256
0.904298 1.000000 0.491256
1.000000 1.000000 0.491256
0.025000 0.030588 0.622352
0.143342 0.030588 0.622352
0.281592 0.030588 0.622352
0.419842 0.030588 0.622352
0.558092 0.030588 0.622352
0.675798 0.030588 0.622352
0.790048 0.030588 0.622352
0.904298 0.030588 0.622352
1.000000 0.030588 0.622352
0.025000 0.167838 0.622352
0.143342 0.167838 0.622352
0.281592 0.167838 0.622352
0.419842 0.167838 0.622352
0.558092 0.167838 0.622352
0.675798 0.167838 0.622352
0.790048 0.167838 0.622352
0.904298 0.167838 0.622352
1.000000 0.167838 0.622352
0.025000 0.305088 0.622352
0.143342 0.305088 0.622352
0.281592 0.305088 0.622352
0.419842 0.305088 0.622352
0.558092 0.305088 0.622352
0.675798 0.305088 0.622352
0.790048 0.305088 0.622352
0.904298 0.305088 0.622352
1.000000 0.305088 0.622352
0.025000 0.442338 0.622352
0.143342 0.442338 0.622352
0.281592 0.442338 0.622352
0.419842 0.442338 0.622352
0.558092 0.442338 0.622352
0.675798 0.442338 0.622352
0.790048 0.442338 0.622352
0.904298 0.442338 0.622352
1.000000 0.442338 0.622352
0.025000 0.578508 0.622352
0.143342 0.578508 0.622352
0.281592 0.578508 0.622352
0.419842 0.578508 0.622352
0.558092 0.578508 0.622352
0.675798 0.578508 0.622352
0.790048 0.578508 0.622352
0.904298 0.578508 0.622352
1.000000 0.578508 0.622352
0.025000 0.693258 0.622352
0.143342 0.693258 0.622352
0.281592 0.693258 0.622352
0.419842 0.693258 0.622352
0.558092 0.693258 0.622352
0.675798 0.693258 0.622352
0.790048 0.693258 0.622352
0.904298 0.693258 0.622352
1.000000 0.693258 0.622352
0.025000 0.808008 0.622352
0.143342 0.808008 0.622352
0.281592 0.808008 0.622352
0.419842 0.808008 0.622352
0.558092 0.808008 0.622352
0.675798 0.808008 0.622352
0.790048 0.808008 0.622352
0.904298 0.808008 0.622352
1.000000 0.808008 0.622352
0.025000 0.922758 0.622352
0.143342 0.922758 0.622352
0.281592 0.922758 0.622352
0.419842 0.922758 0.622352
0.558092 0.922758 0.622352
0.675798 0.922758 0.622352
0.790048 0.922758 0.622352
0.904298 0.922758 0.622352
1.000000 0.922758 0.622352
0.025000 1.000000 0.622352
0.143342 1.000000 0.622352
0.281592 1.000000 0.622352
0.419842 1.000000 0.622352
0.558092 1.000000 0.622352
0.675798 1.000000 0.622352
0.790048 1.000000 0.622352
0.904298 1.000000 0.622352
1.000000 1.000000 0.622352
0.025000 0.030588 0.735352
0.143342 0.030588 0.735352
0.281592 0.030588 0.735352
0.419842 0.030588 0.735352
0.558092 0.030588 0.735352
0.675798 0.030588 0.735352
0.790048 0.030588 0.735352
0.904298 0.030588 0.735352
1.000000 0.030588 0.735352
0.025000 0.167838 0.735352
0.143342 0.167838 0.735352
0.281592 0.167838 0.735352
0.419842 0.167838 0.735352
0.558092 0.167838 0.735352
0.675798 0.167838 0.735352
0.790048 0.167838 0.735352
0.904298 0.167838 0.735352
1.000000 0.167838 0.735352
0.025000 0.305088 0.735352
0.143342 0.305088 0.735352
0.281592 0.305088 0.735352
0.419842 0.305088 0.735352
0.558092 0.305088 0.735352
0.675798 0.305088 0.735352
0.790048 0.305088 0.735352
0.904298 0.305088 0.735352
1.000000 0.305088 0.735352
0.025000 0.442338 0.735352
0.143342 0.442338 0.735352
0.281592 0.442338 0.735352
0.419842 0.442338 0.735352
0.558092 0.442338 0.735352
0.675798 0.442338 0.735352
0.790048 0.442338 0.735352
0.904298 0.442338 0.735352
1.000000 0.442338 0.735352
0.025000 0.578508 0.735352
0.143342 0.578508 0.735352
0.281592 0.578508 0.735352
0.419842 0.578508 0.735352
0.558092 0.578508 0.735352
0.675798 0.578508 0.735352
0.790048 0.578508 0.735352
0.904298 0.578508 0.735352
1.000000 0.578508 0.735352
0.025000 0.693258 0.735352
0.143342 0.693258 0.735352
0.281592 0.693258 0.735352
0.419842 0.693258 0.735352
0.558092 0.693258 0.735352
0.675798 0.693258 0.735352
0.790048 0.693258 0.735352
0.904298 0.693258 0.735352
1.000000 0.693258 0.735352
0.025000 0.808008 0.735352
0.143342 0.808008 0.735352
0.281592 0.808008 0.735352
0.419842 0.808008 0.735352
0.558092 0.808008 0.735352
0.675798 0.808008 0.735352
0.790048 0.808008 0.735352
0.904298 0.808008 0.735352
1.000000 0.808008 0.735352
0.025000 0.922758 0.735352
0.143342 0.922758 0.735352
0.281592 0.922758 0.735352
0.419842 0.922758 0.735352
0.558092 0.922758 0.735352
0.675798 0.922758 0.735352
0.790048 0.922758 0.735352
0.904298 0.922758 0.735352
1.000000 0.922758 0.735352
0.025000 1.000000 0.735352
0.143342 1.000000 0.735352
0.281592 1.000000 0.735352
0.419842 1.000000 0.735352
0.558092 1.000000 0.735352
0.675798 1.000000 0.735352
0.790048 1.000000 0.735352
0.904298 1.000000 0.735352
1.000000 1.000000 0.735352
0.025000 0.030588 0.848352
0.143342 0.030588 0.848352
0.281592 0.030588 0.848352
0.419842 0.030588 0.848352
0.558092 0.030588 0.848352
0.675798 0.030588 0.848352
0.790048 0.030588 0.848352
0.904298 0.030588 0.848352
1.000000 0.030588 0.848352
0.025000 0.167838 0.848352
0.143342 0.167838 0.848352
0.281592 0.167838 0.848352
0.419842 0.167838 0.848352
0.558092 0.167838 0.848352
0.675798 0.167838 0.848352
0.790048 0.167838 0.848352
0.904298 0.167838 0.848352
1.000000 0.167838 0.848352
0.025000 0.305088 0.848352
0.143342 0.305088 0.848352
0.281592 0.305088 0.848352
0.419842 0.305088 0.848352
0.558092 0.305088 0.848352
0.675798 0.305088 0.848352
0.790048 0.305088 0.848352
0.904298 0.305088 0.848352
1.000000 0.305088 0.848352
0.025000 0.442338 0.848352
0.143342 0.442338 0.848352
0.281592 0.442338 0.848352
0.419842 0.442338 0.848352
0.558092 0.442338 0.848352
0.675798 0.442338 0.848352
0.790048 0.442338 0.848352
0.904298 0.442338 0.848352
1.000000 0.442338 0.848352
0.025000 0.578508 0.848352
0.143342 0.578508 0.848352
0.281592 0.578508 0.848352
0.419842 0.578508 0.848352
0.558092 0.578508 0.848352
0.675798 0.578508 0.848352
0.790048 0.578508 0.848352
0.904298 0.578508 0.848352
1.000000 0.578508 0.848352
0.025000 0.693258 0.848352
0.143342 0.693258 0.848352
0.281592 0.693258 0.848352
0.419842 0.693258 0.848352
0.558092 0.693258 0.848352
0.675798 0.693258 0.848352
0.790048 0.693258 0.848352
0.904298 0.693258 0.848352
1.000000 0.693258 0.848352
0.025000 0.808008 0.848352
0.143342 0.808008 0.848352
0.281592 0.808008 0.848352
0.419842 0.808008 0.848352
0.558092 0.808008 0.848352
0.675798 0.808008 0.848352
0.790048 0.808008 0.848352
0.904298 0.808008 0.848352
1.000000 0.808008 0.848352
0.025000 0.922758 0.848352
0.143342 0.922758 0.848352
0.281592 0.922758 0.848352
0.419842 0.922758 0.848352
0.558092 0.922758 0.848352
0.675798 0.922758 0.848352
0.790048 0.922758 0.848352
0.904298 0.922758 0.848352
1.000000 0.922758 0.848352
0.025000 1.000000 0.848352
0.143342 1.000000 0.848352
0.281592 1.000000 0.848352
0.419842 1.000000 0.848352
0.558092 1.000000 0.848352
0.675798 1.000000 0.848352
0.790048 1.000000 0.848352
0.904298 1.000000 0.848352
1.000000 1.000000 0.848352
0.025000 0.030588 0.961352
0.143342 0.030588 0.961352
0.281592 0.030588 0.961352
0.419842 0.030588 0.961352
0.558092 0.030588 0.961352
0.675798 0.030588 0.961352
0.790048 0.030588 0.961352
0.904298 0.030588 0.961352
1.000000 0.030588 0.961352
0.025000 0.167838 0.961352
0.143342 0.167838 0.961352
0.281592 0.167838 0.961352
0.419842 0.167838 0.961352
0.558092 0.167838 0.961352
0.675798 0.167838 0.961352
0.790048 0.167838 0.961352
0.904298 0.167838 0.961352
1.000000 0.167838 0.961352
0.025000 0.305088 0.961352
0.143342 0.305088 0.961352
0.281592 0.305088 0.961352
0.419842 0.305088 0.961352
0.558092 0.305088 0.961352
0.675798 0.305088 0.961352
0.790048 0.305088 0.961352
0.904298 0.305088 0.961352
1.000000 0.305088 0.961352
0.025000 0.442338 0.961352
0.143342 0.442338 0.961352
0.281592 0.442338 0.961352
0.419842 0.442338 0.961352
0.558092 0.442338 0.961352
0.675798 0.442338 0.961352
0.790048 0.442338 0.961352
0.904298 0.442338 0.961352
1.000000 0.442338 0.961352
0.025000 0.578508 0.961352
0.143342 0.578508 0.961352
0.281592 0.578508 0.961352
0.419842 0.578508 0.961352
0.558092 0.578508 0.961352
0.675798 0.578508 0.961352
0.790048 0.578508 0.961352
0.904298 0.578508 0.961352
1.000000 0.578508 0.961352
0.025000 0.693258 0.961352
0.143342 0.693258 0.961352
0.281592 0.693258 0.961352
0.419842 0.693258 0.961352
0.558092 0.693258 0.961352
0.675798 0.693258 0.961352
0.790048 0.693258 0.961352
0.904298 0.693258 0.961352
1.000000 0.693258 0.961352
0.025000 0.808008 0.961352
0.143342 0.808008 0.961352
0.281592 0.808008 0.961352
0.419842 0.808008 0.961352
0.558092 0.808008 0.961352
0.675798 0.808008 0.961352
0.790048 0.808008 0.961352
0.904298 0.808008 0.961352
1.000000 0.808008 0.961352
0.025000 0.922758 0.961352
0.143342 0.922758 0.961352
0.281592 0.922758 0.961352
0.419842 0.922758 0.961352
0.558092 0.922758 0.961352
0.675798 0.922758 0.961352
0.790048 0.922758 0.961352
0.904298 0.922758 0.961352
1.000000 0.922758 0.961352
0.025000 1.000000 0.961352
0.143342 1.000000 0.961352
0.281592 1.000000 0.961352
0.419842 1.000000 0.961352
0.558092 1.000000 0.961352
0.675798 1.000000 0.961352
0.790048 1.000000 0.961352
0.904298 1.000000 0.961352
1.000000 1.000000 0.961352
0.025000 0.030588 1.000000
0.143342 0.030588 1.000000
0.281592 0.030588 1.000000
0.419842 0.030588 1.000000
0.558092 0.030588 1.000000
0.675798 0.030588 1.000000
0.790048 0.030588 1.000000
0.904298 0.030588 1.000000
1.000000 0.030588 1.000000
0.025000 0.167838 1.000000
0.143342 0.167838 1.000000
0.281592 0.167838 1.000000
0.419842 0.167838 1.000000
0.558092 0.167838 1.000000
0.675798 0.167838 1.000000
0.790048 0.167838 1.000000
0.904298 0.167838 1.000000
1.000000 0.167838 1.000000
0.025000 0.305088 1.000000
0.143342 0.305088 1.000000
0.281592 0.305088 1.000000
0.419842 0.305088 1.000000
0.558092 0.305088 1.000000
0.675798 0.305088 1.000000
0.790048 0.305088 1.000000
0.904298 0.305088 1.000000
1.000000 0.305088 1.000000
0.025000 0.442338 1.000000
0.143342 0.442338 1.000000
0.281592 0.442338 1.000000
0.419842 0.442338 1.000000
0.558092 0.442338 1.000000
0.675798 0.442338 1.000000
0.790048 0.442338 1.000000
0.904298 0.442338 1.000000
1.000000 0.442338 1.000000
0.025000 0.578508 1.000000
0.143342 0.578508 1.000000
0.281592 0.578508 1.000000
0.419842 0.578508 1.000000
0.558092 0.578508 1.000000
0.675798 0.578508 1.000000
0.790048 0.578508 1.000000
0.904298 0.578508 1.000000
1.000000 0.578508 1.000000
0.025000 0.693258 1.000000
0.143342 0.693258 1.000000
0.281592 0.693258 1.000000
0.419842 0.693258 1.000000
0.558092 0.693258 1.000000
0.675798 0.693258 1.000000
0.790048 0.693258 1.000000
0.904298 0.693258 1.000000
1.000000 0.693258 1.000000
0.025000 0.808008 1.000000
0.143342 0.808008 1.000000
0.281592 0.808008 1.000000
0.419842 0.808008 1.000000
0.558092 0.808008 1.000000
0.675798 0.808008 1.000000
0.790048 0.808008 1.000000
0.904298 0.808008 1.000000
1.000000 0.808008 1.000000
0.025000 0.922758 1.000000
0.143342 0.922758 1.000000
0.281592 0.922758 1.000000
0.419842 0.922758 1.000000
0.558092 0.922758 1.000000
0.675798 0.922758 1.000000
0.790048 0.922758 1.000000
0.904298 0.922758 1.000000
1.000000 0.922758 1.000000
0.025000 1.000000 1.000000
0.143342 1.000000 1.000000
0.281592 1.000000 1.000000
0.419842 1.000000 1.000000
0.558092 1.000000 1.000000
0.675798 1.000000 1.000000
0.790048 1.000000 1.000000
0.904298 1.000000 1.000000
1.000000 1.000000 1.000000
