app/src/main/assets/luts/cream.cube
TITLE "Lumi cream portrait LUT v3"
LUT_3D_SIZE 9
DOMAIN_MIN 0.0 0.0 0.0
DOMAIN_MAX 1.0 1.0 1.0
0.060880 0.033160 0.020000
0.196162 0.033160 0.020000
0.331444 0.033160 0.020000
0.466726 0.033160 0.020000
0.595739 0.033160 0.020000
0.713353 0.033160 0.020000
0.830968 0.033160 0.020000
0.948583 0.033160 0.020000
1.000000 0.033160 0.020000
0.063397 0.165410 0.020000
0.198679 0.165410 0.020000
0.333961 0.165410 0.020000
0.469243 0.165410 0.020000
0.597927 0.165410 0.020000
0.715542 0.165410 0.020000
0.833156 0.165410 0.020000
0.950771 0.165410 0.020000
1.000000 0.165410 0.020000
0.065914 0.297660 0.020000
0.201196 0.297660 0.020000
0.336478 0.297660 0.020000
0.471760 0.297660 0.020000
0.600115 0.297660 0.020000
0.717730 0.297660 0.020000
0.835345 0.297660 0.020000
0.952959 0.297660 0.020000
1.000000 0.297660 0.020000
0.068431 0.429910 0.020000
0.203713 0.429910 0.020000
0.338995 0.429910 0.020000
0.474278 0.429910 0.020000
0.602304 0.429910 0.020000
0.719918 0.429910 0.020000
0.837533 0.429910 0.020000
0.955148 0.429910 0.020000
1.000000 0.429910 0.020000
0.070948 0.560080 0.020000
0.206230 0.560080 0.020000
0.341512 0.560080 0.020000
0.476795 0.560080 0.020000
0.604492 0.560080 0.020000
0.722107 0.560080 0.020000
0.839721 0.560080 0.020000
0.957336 0.560080 0.020000
1.000000 0.560080 0.020000
0.073465 0.679330 0.020000
0.208747 0.679330 0.020000
0.344030 0.679330 0.020000
0.479312 0.679330 0.020000
0.606680 0.679330 0.020000
0.724295 0.679330 0.020000
0.841910 0.679330 0.020000
0.959524 0.679330 0.020000
1.000000 0.679330 0.020000
0.075982 0.798580 0.020000
0.211264 0.798580 0.020000
0.346547 0.798580 0.020000
0.481829 0.798580 0.020000
0.608869 0.798580 0.020000
0.726483 0.798580 0.020000
0.844098 0.798580 0.020000
0.961713 0.798580 0.020000
1.000000 0.798580 0.020000
0.078499 0.917830 0.020000
0.213782 0.917830 0.020000
0.349064 0.917830 0.020000
0.484346 0.917830 0.020000
0.611057 0.917830 0.020000
0.728672 0.917830 0.020000
0.846286 0.917830 0.020000
0.963901 0.917830 0.020000
1.000000 0.917830 0.020000
0.081016 1.000000 0.020000
0.216299 1.000000 0.020000
0.351581 1.000000 0.020000
0.486863 1.000000 0.020000
0.613245 1.000000 0.020000
0.730860 1.000000 0.020000
0.848475 1.000000 0.020000
0.966089 1.000000 0.020000
1.000000 1.000000 0.020000
0.061369 0.033160 0.107234
0.196651 0.033160 0.107234
0.331933 0.033160 0.107234
0.467215 0.033160 0.107234
0.596164 0.033160 0.107234
0.713778 0.033160 0.107234
0.831393 0.033160 0.107234
0.949008 0.033160 0.107234
1.000000 0.033160 0.107234
0.063886 0.165410 0.107234
0.199168 0.165410 0.107234
0.334450 0.165410 0.107234
0.469732 0.165410 0.107234
0.598352 0.165410 0.107234
0.715967 0.165410 0.107234
0.833581 0.165410 0.107234
0.951196 0.165410 0.107234
1.000000 0.165410 0.107234
0.066403 0.297660 0.107234
0.201685 0.297660 0.107234
0.336967 0.297660 0.107234
0.472249 0.297660 0.107234
0.600540 0.297660 0.107234
0.718155 0.297660 0.107234
0.835770 0.297660 0.107234
0.953384 0.297660 0.107234
1.000000 0.297660 0.107234
0.068920 0.429910 0.107234
0.204202 0.429910 0.107234
0.339484 0.429910 0.107234
0.474766 0.429910 0.107234
0.602729 0.429910 0.107234
0.720343 0.429910 0.107234
0.837958 0.429910 0.107234
0.955573 0.429910 0.107234
1.000000 0.429910 0.107234
0.071437 0.560080 0.107234
0.206719 0.560080 0.107234
0.342001 0.560080 0.107234
0.477283 0.560080 0.107234
0.604917 0.560080 0.107234
0.722532 0.560080 0.107234
0.840146 0.560080 0.107234
0.957761 0.560080 0.107234
1.000000 0.560080 0.107234
0.073954 0.679330 0.107234
0.209236 0.679330 0.107234
0.344518 0.679330 0.107234
0.479800 0.679330 0.107234
0.607105 0.679330 0.107234
0.724720 0.679330 0.107234
0.842335 0.679330 0.107234
0.959949 0.679330 0.107234
1.000000 0.679330 0.107234
0.076471 0.798580 0.107234
0.211753 0.798580 0.107234
0.347035 0.798580 0.107234
0.482318 0.798580 0.107234
0.609294 0.798580 0.107234
0.726908 0.798580 0.107234
0.844523 0.798580 0.107234
0.962138 0.798580 0.107234
1.000000 0.798580 0.107234
0.078988 0.917830 0.107234
0.214270 0.917830 0.107234
0.349552 0.917830 0.107234
0.484835 0.917830 0.107234
0.611482 0.917830 0.107234
0.729097 0.917830 0.107234
0.846711 0.917830 0.107234
0.964326 0.917830 0.107234
1.000000 0.917830 0.107234
0.081505 1.000000 0.107234
0.216787 1.000000 0.107234
0.352070 1.000000 0.107234
0.487352 1.000000 0.107234
0.613670 1.000000 0.107234
0.731285 1.000000 0.107234
0.848900 1.000000 0.107234
0.966514 1.000000 0.107234
1.000000 1.000000 0.107234
0.061858 0.033160 0.224484
0.197140 0.033160 0.224484
0.332422 0.033160 0.224484
0.467704 0.033160 0.224484
0.596589 0.033160 0.224484
0.714203 0.033160 0.224484
0.831818 0.033160 0.224484
0.949433 0.033160 0.224484
1.000000 0.033160 0.224484
0.064375 0.165410 0.224484
0.199657 0.165410 0.224484
0.334939 0.165410 0.224484
0.470221 0.165410 0.224484
0.598777 0.165410 0.224484
0.716392 0.165410 0.224484
0.834006 0.165410 0.224484
0.951621 0.165410 0.224484
1.000000 0.165410 0.224484
0.066892 0.297660 0.224484
0.202174 0.297660 0.224484
0.337456 0.297660 0.224484
0.472738 0.297660 0.224484
0.600965 0.297660 0.224484
0.718580 0.297660 0.224484
0.836195 0.297660 0.224484
0.953809 0.297660 0.224484
1.000000 0.297660 0.224484
0.069409 0.429910 0.224484
0.204691 0.429910 0.224484
0.339973 0.429910 0.224484
0.475255 0.429910 0.224484
0.603154 0.429910 0.224484
0.720768 0.429910 0.224484
0.838383 0.429910 0.224484
0.955998 0.429910 0.224484
1.000000 0.429910 0.224484
0.071926 0.560080 0.224484
0.207208 0.560080 0.224484
0.342490 0.560080 0.224484
0.477772 0.560080 0.224484
0.605342 0.560080 0.224484
0.722957 0.560080 0.224484
0.840571 0.560080 0.224484
0.958186 0.560080 0.224484
1.000000 0.560080 0.224484
0.074443 0.679330 0.224484
0.209725 0.679330 0.224484
0.345007 0.679330 0.224484
0.480289 0.679330 0.224484
0.607530 0.679330 0.224484
0.725145 0.679330 0.224484
0.842760 0.679330 0.224484
0.960374 0.679330 0.224484
1.000000 0.679330 0.224484
0.076960 0.798580 0.224484
0.212242 0.798580 0.224484
0.347524 0.798580 0.224484
0.482806 0.798580 0.224484
0.609719 0.798580 0.224484
0.727333 0.798580 0.224484
0.844948 0.798580 0.224484
0.962563 0.798580 0.224484
1.000000 0.798580 0.224484
0.079477 0.917830 0.224484
0.214759 0.917830 0.224484
0.350041 0.917830 0.224484
0.485323 0.917830 0.224484
0.611907 0.917830 0.224484
0.729522 0.917830 0.224484
0.847136 0.917830 0.224484
0.964751 0.917830 0.224484
1.000000 0.917830 0.224484
0.081994 1.000000 0.224484
0.217276 1.000000 0.224484
0.352558 1.000000 0.224484
0.487840 1.000000 0.224484
0.614095 1.000000 0.224484
0.731710 1.000000 0.224484
0.849325 1.000000 0.224484
0.966939 1.000000 0.224484
1.000000 1.000000 0.224484
0.062346 0.033160 0.341734
0.197629 0.033160 0.341734
0.332911 0.033160 0.341734
0.468193 0.033160 0.341734
0.597014 0.033160 0.341734
0.714628 0.033160 0.341734
0.832243 0.033160 0.341734
0.949858 0.033160 0.341734
1.000000 0.033160 0.341734
0.064864 0.165410 0.341734
0.200146 0.165410 0.341734
0.335428 0.165410 0.341734
0.470710 0.165410 0.341734
0.599202 0.165410 0.341734
0.716817 0.165410 0.341734
0.834431 0.165410 0.341734
0.952046 0.165410 0.341734
1.000000 0.165410 0.341734
0.067381 0.297660 0.341734
0.202663 0.297660 0.341734
0.337945 0.297660 0.341734
0.473227 0.297660 0.341734
0.601390 0.297660 0.341734
0.719005 0.297660 0.341734
0.836620 0.297660 0.341734
0.954234 0.297660 0.341734
1.000000 0.297660 0.341734
0.069898 0.429910 0.341734
0.205180 0.429910 0.341734
0.340462 0.429910 0.341734
0.475744 0.429910 0.341734
0.603579 0.429910 0.341734
0.721193 0.429910 0.341734
0.838808 0.429910 0.341734
0.956423 0.429910 0.341734
1.000000 0.429910 0.341734
0.072415 0.560080 0.341734
0.207697 0.560080 0.341734
0.342979 0.560080 0.341734
0.478261 0.560080 0.341734
0.605767 0.560080 0.341734
0.723382 0.560080 0.341734
0.840996 0.560080 0.341734
0.958611 0.560080 0.341734
1.000000 0.560080 0.341734
0.074932 0.679330 0.341734
0.210214 0.679330 0.341734
0.345496 0.679330 0.341734
0.480778 0.679330 0.341734
0.607955 0.679330 0.341734
0.725570 0.679330 0.341734
0.843185 0.679330 0.341734
0.960799 0.679330 0.341734
1.000000 0.679330 0.341734
0.077449 0.798580 0.341734
0.212731 0.798580 0.341734
0.348013 0.798580 0.341734
0.483295 0.798580 0.341734
0.610144 0.798580 0.341734
0.727758 0.798580 0.341734
0.845373 0.798580 0.341734
0.962988 0.798580 0.341734
1.000000 0.798580 0.341734
0.079966 0.917830 0.341734
0.215248 0.917830 0.341734
0.350530 0.917830 0.341734
0.485812 0.917830 0.341734
0.612332 0.917830 0.341734
0.729947 0.917830 0.341734
0.847561 0.917830 0.341734
0.965176 0.917830 0.341734
1.000000 0.917830 0.341734
0.082483 1.000000 0.341734
0.217765 1.000000 0.341734
0.353047 1.000000 0.341734
0.488329 1.000000 0.341734
0.614520 1.000000 0.341734
0.732135 1.000000 0.341734
0.849750 1.000000 0.341734
0.967364 1.000000 0.341734
1.000000 1.000000 0.341734
0.062835 0.033160 0.458984
0.198117 0.033160 0.458984
0.333400 0.033160 0.458984
0.468682 0.033160 0.458984
0.597439 0.033160 0.458984
0.715053 0.033160 0.458984
0.832668 0.033160 0.458984
0.950283 0.033160 0.458984
1.000000 0.033160 0.458984
0.065352 0.165410 0.458984
0.200634 0.165410 0.458984
0.335917 0.165410 0.458984
0.471199 0.165410 0.458984
0.599627 0.165410 0.458984
0.717242 0.165410 0.458984
0.834856 0.165410 0.458984
0.952471 0.165410 0.458984
1.000000 0.165410 0.458984
0.067869 0.297660 0.458984
0.203152 0.297660 0.458984
0.338434 0.297660 0.458984
0.473716 0.297660 0.458984
0.601815 0.297660 0.458984
0.719430 0.297660 0.458984
0.837045 0.297660 0.458984
0.954659 0.297660 0.458984
1.000000 0.297660 0.458984
0.070386 0.429910 0.458984
0.205669 0.429910 0.458984
0.340951 0.429910 0.458984
0.476233 0.429910 0.458984
0.604004 0.429910 0.458984
0.721618 0.429910 0.458984
0.839233 0.429910 0.458984
0.956848 0.429910 0.458984
1.000000 0.429910 0.458984
0.072904 0.560080 0.458984
0.208186 0.560080 0.458984
0.343468 0.560080 0.458984
0.478750 0.560080 0.458984
0.606192 0.560080 0.458984
0.723807 0.560080 0.458984
0.841421 0.560080 0.458984
0.959036 0.560080 0.458984
1.000000 0.560080 0.458984
0.075421 0.679330 0.458984
0.210703 0.679330 0.458984
0.345985 0.679330 0.458984
0.481267 0.679330 0.458984
0.608380 0.679330 0.458984
0.725995 0.679330 0.458984
0.843610 0.679330 0.458984
0.961224 0.679330 0.458984
1.000000 0.679330 0.458984
0.077938 0.798580 0.458984
0.213220 0.798580 0.458984
0.348502 0.798580 0.458984
0.483784 0.798580 0.458984
0.610569 0.798580 0.458984
0.728183 0.798580 0.458984
0.845798 0.798580 0.458984
0.963413 0.798580 0.458984
1.000000 0.798580 0.458984
0.080455 0.917830 0.458984
0.215737 0.917830 0.458984
0.351019 0.917830 0.458984
0.486301 0.917830 0.458984
0.612757 0.917830 0.458984
0.730372 0.917830 0.458984
0.847986 0.917830 0.458984
0.965601 0.917830 0.458984
1.000000 0.917830 0.458984
0.082972 1.000000 0.458984
0.218254 1.000000 0.458984
0.353536 1.000000 0.458984
0.488818 1.000000 0.458984
0.614945 1.000000 0.458984
0.732560 1.000000 0.458984
0.850175 1.000000 0.458984
0.967789 1.000000 0.458984
1.000000 1.000000 0.458984
0.063324 0.033160 0.579210
0.198606 0.033160 0.579210
0.333888 0.033160 0.579210
0.469170 0.033160 0.579210
0.597864 0.033160 0.579210
0.715478 0.033160 0.579210
0.833093 0.033160 0.579210
0.950708 0.033160 0.579210
1.000000 0.033160 0.579210
0.065841 0.165410 0.579210
0.201123 0.165410 0.579210
0.336405 0.165410 0.579210
0.471688 0.165410 0.579210
0.600052 0.165410 0.579210
0.717667 0.165410 0.579210
0.835281 0.165410 0.579210
0.952896 0.165410 0.579210
1.000000 0.165410 0.579210
0.068358 0.297660 0.579210
0.203640 0.297660 0.579210
0.338922 0.297660 0.579210
0.474205 0.297660 0.579210
0.602240 0.297660 0.579210
0.719855 0.297660 0.579210
0.837470 0.297660 0.579210
0.955084 0.297660 0.579210
1.000000 0.297660 0.579210
0.070875 0.429910 0.579210
0.206157 0.429910 0.579210
0.341440 0.429910 0.579210
0.476722 0.429910 0.579210
0.604429 0.429910 0.579210
0.722043 0.429910 0.579210
0.839658 0.429910 0.579210
0.957273 0.429910 0.579210
1.000000 0.429910 0.579210
0.073392 0.560080 0.579210
0.208674 0.560080 0.579210
0.343957 0.560080 0.579210
0.479239 0.560080 0.579210
0.606617 0.560080 0.579210
0.724232 0.560080 0.579210
0.841846 0.560080 0.579210
0.959461 0.560080 0.579210
1.000000 0.560080 0.579210
0.075909 0.679330 0.579210
0.211192 0.679330 0.579210
0.346474 0.679330 0.579210
0.481756 0.679330 0.579210
0.608805 0.679330 0.579210
0.726420 0.679330 0.579210
0.844035 0.679330 0.579210
0.961649 0.679330 0.579210
1.000000 0.679330 0.579210
0.078426 0.798580 0.579210
0.213709 0.798580 0.579210
0.348991 0.798580 0.579210
0.484273 0.798580 0.579210
0.610994 0.798580 0.579210
0.728608 0.798580 0.579210
0.846223 0.798580 0.579210
0.963838 0.798580 0.579210
1.000000 0.798580 0.579210
0.080944 0.917830 0.579210
0.216226 0.917830 0.579210
0.351508 0.917830 0.579210
0.486790 0.917830 0.579210
0.613182 0.917830 0.579210
0.730797 0.917830 0.579210
0.848411 0.917830 0.579210
0.966026 0.917830 0.579210
1.000000 0.917830 0.579210
0.083461 1.000000 0.579210
0.218743 1.000000 0.579210
0.354025 1.000000 0.579210
0.489307 1.000000 0.579210
0.615370 1.000000 0.579210
0.732985 1.000000 0.579210
0.850600 1.000000 0.579210
0.968214 1.000000 0.579210
1.000000 1.000000 0.579210
0.063813 0.033160 0.700460
0.199095 0.033160 0.700460
0.334377 0.033160 0.700460
0.469659 0.033160 0.700460
0.598289 0.033160 0.700460
0.715903 0.033160 0.700460
0.833518 0.033160 0.700460
0.951133 0.033160 0.700460
1.000000 0.033160 0.700460
0.066330 0.165410 0.700460
0.201612 0.165410 0.700460
0.336894 0.165410 0.700460
0.472176 0.165410 0.700460
0.600477 0.165410 0.700460
0.718092 0.165410 0.700460
0.835706 0.165410 0.700460
0.953321 0.165410 0.700460
1.000000 0.165410 0.700460
0.068847 0.297660 0.700460
0.204129 0.297660 0.700460
0.339411 0.297660 0.700460
0.474693 0.297660 0.700460
0.602665 0.297660 0.700460
0.720280 0.297660 0.700460
0.837895 0.297660 0.700460
0.955509 0.297660 0.700460
1.000000 0.297660 0.700460
0.071364 0.429910 0.700460
0.206646 0.429910 0.700460
0.341928 0.429910 0.700460
0.477210 0.429910 0.700460
0.604854 0.429910 0.700460
0.722468 0.429910 0.700460
0.840083 0.429910 0.700460
0.957698 0.429910 0.700460
1.000000 0.429910 0.700460
0.073881 0.560080 0.700460
0.209163 0.560080 0.700460
0.344445 0.560080 0.700460
0.479728 0.560080 0.700460
0.607042 0.560080 0.700460
0.724657 0.560080 0.700460
0.842271 0.560080 0.700460
0.959886 0.560080 0.700460
1.000000 0.560080 0.700460
0.076398 0.679330 0.700460
0.211680 0.679330 0.700460
0.346962 0.679330 0.700460
0.482245 0.679330 0.700460
0.609230 0.679330 0.700460
0.726845 0.679330 0.700460
0.844460 0.679330 0.700460
0.962074 0.679330 0.700460
1.000000 0.679330 0.700460
0.078915 0.798580 0.700460
0.214197 0.798580 0.700460
0.349480 0.798580 0.700460
0.484762 0.798580 0.700460
0.611419 0.798580 0.700460
0.729033 0.798580 0.700460
0.846648 0.798580 0.700460
0.964263 0.798580 0.700460
1.000000 0.798580 0.700460
0.081432 0.917830 0.700460
0.216714 0.917830 0.700460
0.351997 0.917830 0.700460
0.487279 0.917830 0.700460
0.613607 0.917830 0.700460
0.731222 0.917830 0.700460
0.848836 0.917830 0.700460
0.966451 0.917830 0.700460
1.000000 0.917830 0.700460
0.083949 1.000000 0.700460
0.219232 1.000000 0.700460
0.354514 1.000000 0.700460
0.489796 1.000000 0.700460
0.615795 1.000000 0.700460
0.733410 1.000000 0.700460
0.851025 1.000000 0.700460
0.968639 1.000000 0.700460
1.000000 1.000000 0.700460
0.064302 0.033160 0.821710
0.199584 0.033160 0.821710
0.334866 0.033160 0.821710
0.470148 0.033160 0.821710
0.598714 0.033160 0.821710
0.716328 0.033160 0.821710
0.833943 0.033160 0.821710
0.951558 0.033160 0.821710
1.000000 0.033160 0.821710
0.066819 0.165410 0.821710
0.202101 0.165410 0.821710
0.337383 0.165410 0.821710
0.472665 0.165410 0.821710
0.600902 0.165410 0.821710
0.718517 0.165410 0.821710
0.836131 0.165410 0.821710
0.953746 0.165410 0.821710
1.000000 0.165410 0.821710
0.069336 0.297660 0.821710
0.204618 0.297660 0.821710
0.339900 0.297660 0.821710
0.475182 0.297660 0.821710
0.603090 0.297660 0.821710
0.720705 0.297660 0.821710
0.838320 0.297660 0.821710
0.955934 0.297660 0.821710
1.000000 0.297660 0.821710
0.071853 0.429910 0.821710
0.207135 0.429910 0.821710
0.342417 0.429910 0.821710
0.477699 0.429910 0.821710
0.605279 0.429910 0.821710
0.722893 0.429910 0.821710
0.840508 0.429910 0.821710
0.958123 0.429910 0.821710
1.000000 0.429910 0.821710
0.074370 0.560080 0.821710
0.209652 0.560080 0.821710
0.344934 0.560080 0.821710
0.480216 0.560080 0.821710
0.607467 0.560080 0.821710
0.725082 0.560080 0.821710
0.842696 0.560080 0.821710
0.960311 0.560080 0.821710
1.000000 0.560080 0.821710
0.076887 0.679330 0.821710
0.212169 0.679330 0.821710
0.347451 0.679330 0.821710
0.482733 0.679330 0.821710
0.609655 0.679330 0.821710
0.727270 0.679330 0.821710
0.844885 0.679330 0.821710
0.962499 0.679330 0.821710
1.000000 0.679330 0.821710
0.079404 0.798580 0.821710
0.214686 0.798580 0.821710
0.349968 0.798580 0.821710
0.485250 0.798580 0.821710
0.611844 0.798580 0.821710
0.729458 0.798580 0.821710
0.847073 0.798580 0.821710
0.964688 0.798580 0.821710
1.000000 0.798580 0.821710
0.081921 0.917830 0.821710
0.217203 0.917830 0.821710
0.352485 0.917830 0.821710
0.487768 0.917830 0.821710
0.614032 0.917830 0.821710
0.731647 0.917830 0.821710
0.849261 0.917830 0.821710
0.966876 0.917830 0.821710
1.000000 0.917830 0.821710
0.084438 1.000000 0.821710
0.219720 1.000000 0.821710
0.355002 1.000000 0.821710
0.490285 1.000000 0.821710
0.616220 1.000000 0.821710
0.733835 1.000000 0.821710
0.851450 1.000000 0.821710
0.969064 1.000000 0.821710
1.000000 1.000000 0.821710
0.064791 0.033160 0.942960
0.200073 0.033160 0.942960
0.335355 0.033160 0.942960
0.470637 0.033160 0.942960
0.599139 0.033160 0.942960
0.716753 0.033160 0.942960
0.834368 0.033160 0.942960
0.951983 0.033160 0.942960
1.000000 0.033160 0.942960
0.067308 0.165410 0.942960
0.202590 0.165410 0.942960
0.337872 0.165410 0.942960
0.473154 0.165410 0.942960
0.601327 0.165410 0.942960
0.718942 0.165410 0.942960
0.836556 0.165410 0.942960
0.954171 0.165410 0.942960
1.000000 0.165410 0.942960
0.069825 0.297660 0.942960
0.205107 0.297660 0.942960
0.340389 0.297660 0.942960
0.475671 0.297660 0.942960
0.603515 0.297660 0.942960
0.721130 0.297660 0.942960
0.838745 0.297660 0.942960
0.956359 0.297660 0.942960
1.000000 0.297660 0.942960
0.072342 0.429910 0.942960
0.207624 0.429910 0.942960
0.342906 0.429910 0.942960
0.478188 0.429910 0.942960
0.605704 0.429910 0.942960
0.723318 0.429910 0.942960
0.840933 0.429910 0.942960
0.958548 0.429910 0.942960
1.000000 0.429910 0.942960
0.074859 0.560080 0.942960
0.210141 0.560080 0.942960
0.345423 0.560080 0.942960
0.480705 0.560080 0.942960
0.607892 0.560080 0.942960
0.725507 0.560080 0.942960
0.843121 0.560080 0.942960
0.960736 0.560080 0.942960
1.000000 0.560080 0.942960
0.077376 0.679330 0.942960
0.212658 0.679330 0.942960
0.347940 0.679330 0.942960
0.483222 0.679330 0.942960
0.610080 0.679330 0.942960
0.727695 0.679330 0.942960
0.845310 0.679330 0.942960
0.962924 0.679330 0.942960
1.000000 0.679330 0.942960
0.079893 0.798580 0.942960
0.215175 0.798580 0.942960
0.350457 0.798580 0.942960
0.485739 0.798580 0.942960
0.612269 0.798580 0.942960
0.729883 0.798580 0.942960
0.847498 0.798580 0.942960
0.965113 0.798580 0.942960
1.000000 0.798580 0.942960
0.082410 0.917830 0.942960
0.217692 0.917830 0.942960
0.352974 0.917830 0.942960
0.488256 0.917830 0.942960
0.614457 0.917830 0.942960
0.732072 0.917830 0.942960
0.849686 0.917830 0.942960
0.967301 0.917830 0.942960
1.000000 0.917830 0.942960
0.084927 1.000000 0.942960
0.220209 1.000000 0.942960
0.355491 1.000000 0.942960
0.490773 1.000000 0.942960
0.616645 1.000000 0.942960
0.734260 1.000000 0.942960
0.851875 1.000000 0.942960
0.969489 1.000000 0.942960
1.000000 1.000000 0.942960
