app/src/main/assets/luts/film.cube
TITLE "Lumi film portrait LUT v3"
LUT_3D_SIZE 9
DOMAIN_MIN 0.0 0.0 0.0
DOMAIN_MAX 1.0 1.0 1.0
0.132330 0.075207 0.092572
0.241418 0.074082 0.090405
0.350506 0.072957 0.088238
0.459594 0.071833 0.086071
0.573569 0.070708 0.083904
0.689521 0.069583 0.081737
0.805473 0.068458 0.079570
0.921425 0.067333 0.077403
0.964000 0.066209 0.075236
0.128085 0.188749 0.088318
0.237173 0.187624 0.086151
0.346261 0.186499 0.083984
0.455349 0.185374 0.081817
0.569057 0.184250 0.079650
0.685009 0.183125 0.077483
0.800961 0.182000 0.075316
0.916913 0.180875 0.073149
0.964000 0.179750 0.070982
0.123841 0.302291 0.084063
0.232928 0.301166 0.081896
0.342016 0.300041 0.079729
0.451104 0.298916 0.077562
0.564546 0.297791 0.075395
0.680497 0.296667 0.073228
0.796449 0.295542 0.071061
0.912401 0.294417 0.068894
0.964000 0.293292 0.066727
0.119596 0.415832 0.079809
0.228684 0.414708 0.077642
0.337771 0.413583 0.075475
0.446859 0.412458 0.073308
0.560034 0.411333 0.071141
0.675986 0.410208 0.068974
0.791937 0.409084 0.066807
0.907889 0.407959 0.064640
0.964000 0.406834 0.062473
0.115351 0.530773 0.075555
0.224439 0.529599 0.073388
0.333527 0.528426 0.071221
0.442615 0.527252 0.069054
0.555522 0.526079 0.066887
0.671474 0.524906 0.064720
0.787426 0.523732 0.062553
0.903377 0.522559 0.060386
0.964000 0.521385 0.058219
0.111106 0.649219 0.071301
0.220194 0.648046 0.069134
0.329282 0.646872 0.066967
0.438370 0.645699 0.064800
0.551010 0.644525 0.062633
0.666962 0.643352 0.060466
0.782914 0.642179 0.058299
0.898866 0.641005 0.056132
0.964000 0.639832 0.056000
0.106862 0.767665 0.067046
0.215949 0.766492 0.064879
0.325037 0.765319 0.062712
0.434125 0.764145 0.060545
0.546498 0.762972 0.058378
0.662450 0.761798 0.056211
0.778402 0.760625 0.056000
0.894354 0.759452 0.056000
0.964000 0.758278 0.056000
0.102617 0.886112 0.062792
0.211705 0.884938 0.060625
0.320793 0.883765 0.058458
0.429880 0.882592 0.056291
0.541986 0.881418 0.056000
0.657938 0.880245 0.056000
0.773890 0.879071 0.056000
0.889842 0.877898 0.056000
0.964000 0.876725 0.056000
0.098372 0.980000 0.058538
0.207460 0.980000 0.056371
0.316548 0.980000 0.056000
0.425636 0.980000 0.056000
0.537475 0.980000 0.056000
0.653426 0.980000 0.056000
0.769378 0.980000 0.056000
0.885330 0.980000 0.056000
0.964000 0.980000 0.056000
0.131506 0.074778 0.203246
0.240593 0.073653 0.201079
0.349681 0.072529 0.198912
0.458769 0.071404 0.196745
0.572693 0.070279 0.194578
0.688645 0.069154 0.192411
0.804597 0.068029 0.190244
0.920548 0.066905 0.188077
0.964000 0.065780 0.185910
0.127261 0.188320 0.198992
0.236349 0.187195 0.196825
0.345437 0.186070 0.194657
0.454524 0.184946 0.192490
0.568181 0.183821 0.190323
0.684133 0.182696 0.188156
0.800085 0.181571 0.185989
0.916037 0.180446 0.183822
0.964000 0.179322 0.181655
0.123016 0.301862 0.194737
0.232104 0.300737 0.192570
0.341192 0.299612 0.190403
0.450280 0.298487 0.188236
0.563669 0.297363 0.186069
0.679621 0.296238 0.183902
0.795573 0.295113 0.181735
0.911525 0.293988 0.179568
0.964000 0.292863 0.177401
0.118771 0.415403 0.190483
0.227859 0.414279 0.188316
0.336947 0.413154 0.186149
0.446035 0.412029 0.183982
0.559158 0.410904 0.181815
0.675109 0.409779 0.179648
0.791061 0.408655 0.177481
0.907013 0.407530 0.175314
0.964000 0.406405 0.173147
0.114527 0.530325 0.186229
0.223615 0.529152 0.184062
0.332702 0.527978 0.181895
0.441790 0.526805 0.179728
0.554646 0.525632 0.177561
0.670598 0.524458 0.175394
0.786549 0.523285 0.173227
0.902501 0.522111 0.171060
0.964000 0.520938 0.168893
0.110282 0.648772 0.181974
0.219370 0.647598 0.179807
0.328458 0.646425 0.177640
0.437545 0.645251 0.175473
0.550134 0.644078 0.173306
0.666086 0.642905 0.171139
0.782037 0.641731 0.168972
0.897989 0.640558 0.166805
0.964000 0.639384 0.164638
0.106037 0.767218 0.177720
0.215125 0.766045 0.175553
0.324213 0.764871 0.173386
0.433301 0.763698 0.171219
0.545622 0.762524 0.169052
0.661574 0.761351 0.166885
0.777526 0.760178 0.164718
0.893477 0.759004 0.162551
0.964000 0.757831 0.160384
0.101792 0.885664 0.173466
0.210880 0.884491 0.171299
0.319968 0.883318 0.169132
0.429056 0.882144 0.166965
0.541110 0.880971 0.164798
0.657062 0.879797 0.162631
0.773014 0.878624 0.160464
0.888966 0.877451 0.158297
0.964000 0.876277 0.156130
0.097548 0.980000 0.169212
0.206636 0.980000 0.167045
0.315723 0.980000 0.164878
0.424811 0.980000 0.162711
0.536598 0.980000 0.160544
0.652550 0.980000 0.158377
0.768502 0.980000 0.156210
0.884454 0.980000 0.154043
0.964000 0.980000 0.151876
0.130681 0.074349 0.313920
0.239769 0.073224 0.311753
0.348857 0.072100 0.309586
0.457945 0.070975 0.307419
0.571817 0.069850 0.305252
0.687769 0.068725 0.303085
0.803720 0.067600 0.300918
0.919672 0.066476 0.298751
0.964000 0.065351 0.296584
0.126437 0.187891 0.309665
0.235524 0.186766 0.307498
0.344612 0.185641 0.305331
0.453700 0.184517 0.303164
0.567305 0.183392 0.300997
0.683257 0.182267 0.298830
0.799209 0.181142 0.296663
0.915160 0.180017 0.294496
0.964000 0.178893 0.292329
0.122192 0.301433 0.305411
0.231280 0.300308 0.303244
0.340367 0.299183 0.301077
0.449455 0.298058 0.298910
0.562793 0.296934 0.296743
0.678745 0.295809 0.294576
0.794697 0.294684 0.292409
0.910649 0.293559 0.290242
0.964000 0.292434 0.288075
0.117947 0.414975 0.301157
0.227035 0.413850 0.298990
0.336123 0.412725 0.296823
0.445211 0.411600 0.294656
0.558281 0.410475 0.292489
0.674233 0.409351 0.290322
0.790185 0.408226 0.288155
0.906137 0.407101 0.285988
0.964000 0.405976 0.283821
0.113702 0.529878 0.296902
0.222790 0.528704 0.294735
0.331878 0.527531 0.292568
0.440966 0.526358 0.290401
0.553769 0.525184 0.288234
0.669721 0.524011 0.286067
0.785673 0.522837 0.283900
0.901625 0.521664 0.281733
0.964000 0.520491 0.279566
0.109458 0.648324 0.292648
0.218545 0.647151 0.290481
0.327633 0.645977 0.288314
0.436721 0.644804 0.286147
0.549258 0.643631 0.283980
0.665209 0.642457 0.281813
0.781161 0.641284 0.279646
0.897113 0.640110 0.277479
0.964000 0.638937 0.275312
0.105213 0.766771 0.288394
0.214301 0.765597 0.286227
0.323389 0.764424 0.284060
0.432476 0.763250 0.281893
0.544746 0.762077 0.279726
0.660698 0.760904 0.277559
0.776649 0.759730 0.275392
0.892601 0.758557 0.273225
0.964000 0.757383 0.271058
0.100968 0.885217 0.284140
0.210056 0.884044 0.281973
0.319144 0.882870 0.279806
0.428232 0.881697 0.277639
0.540234 0.880523 0.275472
0.656186 0.879350 0.273305
0.772138 0.878177 0.271138
0.888089 0.877003 0.268971
0.964000 0.875830 0.266804
0.096723 0.980000 0.279885
0.205811 0.980000 0.277718
0.314899 0.980000 0.275551
0.423987 0.980000 0.273384
0.535722 0.980000 0.271217
0.651674 0.980000 0.269050
0.767626 0.980000 0.266883
0.883578 0.980000 0.264716
0.964000 0.980000 0.262549
0.129857 0.073920 0.424593
0.238945 0.072796 0.422426
0.348033 0.071671 0.420259
0.457120 0.070546 0.418092
0.570941 0.069421 0.415925
0.686892 0.068296 0.413758
0.802844 0.067172 0.411591
0.918796 0.066047 0.409424
0.964000 0.064922 0.407257
0.125612 0.187462 0.420339
0.234700 0.186337 0.418172
0.343788 0.185213 0.416005
0.452876 0.184088 0.413838
0.566429 0.182963 0.411671
0.682381 0.181838 0.409504
0.798332 0.180713 0.407337
0.914284 0.179589 0.405170
0.964000 0.178464 0.403003
0.121367 0.301004 0.416085
0.230455 0.299879 0.413918
0.339543 0.298754 0.411751
0.448631 0.297630 0.409584
0.561917 0.296505 0.407417
0.677869 0.295380 0.405250
0.793821 0.294255 0.403083
0.909772 0.293130 0.400916
0.964000 0.292006 0.398749
0.117123 0.414546 0.411831
0.226211 0.413421 0.409664
0.335298 0.412296 0.407497
0.444386 0.411171 0.405330
0.557405 0.410047 0.403162
0.673357 0.408922 0.400995
0.789309 0.407797 0.398828
0.905260 0.406672 0.396661
0.964000 0.405547 0.394494
0.112878 0.529430 0.407576
0.221966 0.528257 0.405409
0.331054 0.527084 0.403242
0.440142 0.525910 0.401075
0.552893 0.524737 0.398908
0.668845 0.523563 0.396741
0.784797 0.522390 0.394574
0.900749 0.521217 0.392407
0.964000 0.520043 0.390240
0.108633 0.647877 0.403322
0.217721 0.646703 0.401155
0.326809 0.645530 0.398988
0.435897 0.644357 0.396821
0.548381 0.643183 0.394654
0.664333 0.642010 0.392487
0.780285 0.640836 0.390320
0.896237 0.639663 0.388153
0.964000 0.638490 0.385986
0.104388 0.766323 0.399068
0.213476 0.765150 0.396901
0.322564 0.763976 0.394734
0.431652 0.762803 0.392567
0.543870 0.761630 0.390400
0.659821 0.760456 0.388233
0.775773 0.759283 0.386066
0.891725 0.758109 0.383899
0.964000 0.756936 0.381732
0.100144 0.884770 0.394813
0.209232 0.883596 0.392646
0.318319 0.882423 0.390479
0.427407 0.881249 0.388312
0.539358 0.880076 0.386145
0.655310 0.878903 0.383978
0.771261 0.877729 0.381811
0.887213 0.876556 0.379644
0.964000 0.875383 0.377477
0.095899 0.980000 0.390559
0.204987 0.980000 0.388392
0.314075 0.980000 0.386225
0.423163 0.980000 0.384058
0.534846 0.980000 0.381891
0.650798 0.980000 0.379724
0.766750 0.980000 0.377557
0.882701 0.980000 0.375390
0.964000 0.980000 0.373223
0.129033 0.073492 0.538251
0.238120 0.072367 0.535889
0.347208 0.071242 0.533528
0.456296 0.070117 0.531167
0.570064 0.068992 0.528805
0.686016 0.067868 0.526444
0.801968 0.066743 0.524083
0.917920 0.065618 0.521721
0.964000 0.064493 0.519360
0.124788 0.187033 0.533615
0.233876 0.185909 0.531254
0.342964 0.184784 0.528892
0.452051 0.183659 0.526531
0.565552 0.182534 0.524169
0.681504 0.181409 0.521808
0.797456 0.180285 0.519447
0.913408 0.179160 0.517085
0.964000 0.178035 0.514724
0.120543 0.300575 0.528979
0.229631 0.299450 0.526618
0.338719 0.298326 0.524256
0.447807 0.297201 0.521895
0.561041 0.296076 0.519534
0.676992 0.294951 0.517172
0.792944 0.293826 0.514811
0.908896 0.292702 0.512450
0.964000 0.291577 0.510088
0.116298 0.414117 0.524343
0.225386 0.412992 0.521982
0.334474 0.411867 0.519621
0.443562 0.410743 0.517259
0.556529 0.409618 0.514898
0.672481 0.408493 0.512536
0.788432 0.407368 0.510175
0.904384 0.406243 0.507814
0.964000 0.405119 0.505452
0.112054 0.528983 0.519707
0.221141 0.527810 0.517346
0.330229 0.526636 0.514985
0.439317 0.525463 0.512623
0.552017 0.524289 0.510262
0.667969 0.523116 0.507901
0.783921 0.521943 0.505539
0.899872 0.520769 0.503178
0.964000 0.519596 0.500914
0.107809 0.647429 0.515072
0.216897 0.646256 0.512710
0.325985 0.645083 0.510349
0.435072 0.643909 0.507988
0.547505 0.642736 0.505626
0.663457 0.641563 0.503265
0.779409 0.640389 0.500994
0.895361 0.639216 0.498827
0.964000 0.638042 0.496660
0.103564 0.765876 0.510436
0.212652 0.764702 0.508074
0.321740 0.763529 0.505713
0.430828 0.762356 0.503352
0.542993 0.761182 0.501073
0.658945 0.760009 0.498906
0.774897 0.758836 0.496739
0.890849 0.757662 0.494572
0.964000 0.756489 0.492405
0.099319 0.884322 0.505800
0.208407 0.883149 0.503439
0.317495 0.881975 0.501153
0.426583 0.880802 0.498986
0.538482 0.879629 0.496819
0.654433 0.878455 0.494652
0.770385 0.877282 0.492485
0.886337 0.876109 0.490318
0.964000 0.874935 0.488151
0.095075 0.980000 0.501233
0.204162 0.980000 0.499066
0.313250 0.980000 0.496899
0.422338 0.980000 0.494732
0.533970 0.980000 0.492565
0.649921 0.980000 0.490398
0.765873 0.980000 0.488231
0.881825 0.980000 0.486064
0.964000 0.980000 0.483897
0.128208 0.073063 0.658850
0.237296 0.071938 0.656489
0.346384 0.070813 0.654128
0.455472 0.069688 0.651766
0.569188 0.068564 0.649405
0.685140 0.067439 0.647044
0.801092 0.066314 0.644682
0.917044 0.065189 0.642321
0.964000 0.064064 0.639960
0.123963 0.186605 0.654215
0.233051 0.185480 0.651853
0.342139 0.184355 0.649492
0.451227 0.183230 0.647131
0.564676 0.182105 0.644769
0.680628 0.180981 0.642408
0.796580 0.179856 0.640046
0.912532 0.178731 0.637685
0.964000 0.177606 0.635324
0.119719 0.300146 0.649579
0.228807 0.299021 0.647217
0.337894 0.297897 0.644856
0.446982 0.296772 0.642495
0.560164 0.295647 0.640133
0.676116 0.294522 0.637772
0.792068 0.293397 0.635411
0.908020 0.292273 0.633049
0.964000 0.291148 0.630688
0.115474 0.413688 0.644943
0.224562 0.412563 0.642582
0.333650 0.411438 0.640220
0.442738 0.410314 0.637859
0.555653 0.409189 0.635498
0.671604 0.408064 0.633136
0.787556 0.406939 0.630775
0.903508 0.405814 0.628413
0.964000 0.404690 0.626052
0.111229 0.528536 0.640307
0.220317 0.527362 0.637946
0.329405 0.526189 0.635584
0.438493 0.525016 0.633223
0.551141 0.523842 0.630862
0.667093 0.522669 0.628500
0.783044 0.521495 0.626139
0.898996 0.520322 0.623778
0.964000 0.519149 0.621416
0.106984 0.646982 0.635671
0.216072 0.645809 0.633310
0.325160 0.644635 0.630949
0.434248 0.643462 0.628587
0.546629 0.642289 0.626226
0.662581 0.641115 0.623864
0.778533 0.639942 0.621503
0.894484 0.638768 0.619142
0.964000 0.637595 0.616780
0.102740 0.765428 0.631035
0.211828 0.764255 0.628674
0.320915 0.763082 0.626313
0.430003 0.761908 0.623951
0.542117 0.760735 0.621590
0.658069 0.759562 0.619229
0.774021 0.758388 0.616867
0.889973 0.757215 0.614506
0.964000 0.756041 0.612145
0.098495 0.883875 0.626400
0.207583 0.882701 0.624038
0.316671 0.881528 0.621677
0.425759 0.880355 0.619316
0.537605 0.879181 0.616954
0.653557 0.878008 0.614593
0.769509 0.876835 0.612231
0.885461 0.875661 0.609870
0.964000 0.874488 0.607509
0.094250 0.980000 0.621764
0.203338 0.980000 0.619402
0.312426 0.980000 0.617041
0.421514 0.980000 0.614680
0.533093 0.980000 0.612318
0.649045 0.980000 0.609957
0.764997 0.980000 0.607596
0.880949 0.980000 0.605234
0.964000 0.980000 0.602873
0.127384 0.072634 0.779450
0.236472 0.071509 0.777089
0.345560 0.070384 0.774727
0.454647 0.069259 0.772366
0.568312 0.068135 0.770005
0.684264 0.067010 0.767643
0.800215 0.065885 0.765282
0.916167 0.064760 0.762921
0.964000 0.063635 0.760559
0.123139 0.186176 0.774814
0.232227 0.185051 0.772453
0.341315 0.183926 0.770092
0.450403 0.182801 0.767730
0.563800 0.181676 0.765369
0.679752 0.180552 0.763008
0.795704 0.179427 0.760646
0.911655 0.178302 0.758285
0.964000 0.177177 0.755923
0.118894 0.299717 0.770178
0.227982 0.298593 0.767817
0.337070 0.297468 0.765456
0.446158 0.296343 0.763094
0.559288 0.295218 0.760733
0.675240 0.294093 0.758372
0.791192 0.292969 0.756010
0.907144 0.291844 0.753649
0.964000 0.290719 0.751288
0.114650 0.413259 0.765543
0.223737 0.412134 0.763181
0.332825 0.411010 0.760820
0.441913 0.409885 0.758459
0.554776 0.408760 0.756097
0.670728 0.407635 0.753736
0.786680 0.406510 0.751374
0.902632 0.405386 0.749013
0.964000 0.404261 0.746652
0.110405 0.528088 0.760907
0.219493 0.526915 0.758545
0.328581 0.525742 0.756184
0.437668 0.524568 0.753823
0.550265 0.523395 0.751461
0.666216 0.522221 0.749100
0.782168 0.521048 0.746739
0.898120 0.519875 0.744377
0.964000 0.518701 0.742016
0.106160 0.646535 0.756271
0.215248 0.645361 0.753910
0.324336 0.644188 0.751548
0.433424 0.643015 0.749187
0.545753 0.641841 0.746826
0.661705 0.640668 0.744464
0.777656 0.639494 0.742103
0.893608 0.638321 0.739741
0.964000 0.637148 0.737380
0.101915 0.764981 0.751635
0.211003 0.763808 0.749274
0.320091 0.762634 0.746912
0.429179 0.761461 0.744551
0.541241 0.760288 0.742190
0.657193 0.759114 0.739828
0.773145 0.757941 0.737467
0.889096 0.756767 0.735106
0.964000 0.755594 0.732744
0.097671 0.883427 0.746999
0.206758 0.882254 0.744638
0.315846 0.881081 0.742277
0.424934 0.879907 0.739915
0.536729 0.878734 0.737554
0.652681 0.877561 0.735193
0.768633 0.876387 0.732831
0.884584 0.875214 0.730470
0.964000 0.874040 0.728108
0.093426 0.980000 0.742363
0.202514 0.980000 0.740002
0.311602 0.980000 0.737641
0.420689 0.980000 0.735279
0.532217 0.980000 0.732918
0.648169 0.980000 0.730557
0.764121 0.980000 0.728195
0.880073 0.980000 0.725834
0.964000 0.980000 0.723473
0.126559 0.072205 0.900050
0.235647 0.071080 0.897688
0.344735 0.069955 0.895327
0.453823 0.068831 0.892966
0.567436 0.067706 0.890604
0.683387 0.066581 0.888243
0.799339 0.065456 0.885882
0.915291 0.064331 0.883520
0.964000 0.063207 0.881159
0.122315 0.185747 0.895414
0.231403 0.184622 0.893053
0.340490 0.183497 0.890691
0.449578 0.182372 0.888330
0.562924 0.181248 0.885969
0.678876 0.180123 0.883607
0.794827 0.178998 0.881246
0.910779 0.177873 0.878884
0.964000 0.176748 0.876523
0.118070 0.299289 0.890778
0.227158 0.298164 0.888417
0.336246 0.297039 0.886055
0.445334 0.295914 0.883694
0.558412 0.294789 0.881333
0.674364 0.293665 0.878971
0.790316 0.292540 0.876610
0.906267 0.291415 0.874249
0.964000 0.290290 0.871887
0.113825 0.412830 0.886142
0.222913 0.411706 0.883781
0.332001 0.410581 0.881420
0.441089 0.409456 0.879058
0.553900 0.408331 0.876697
0.669852 0.407206 0.874336
0.785804 0.406082 0.871974
0.901756 0.404957 0.869613
0.964000 0.403832 0.867251
0.109580 0.527641 0.881506
0.218668 0.526468 0.879145
0.327756 0.525294 0.876784
0.436844 0.524121 0.874422
0.549388 0.522947 0.872061
0.665340 0.521774 0.869700
0.781292 0.520601 0.867338
0.897244 0.519427 0.864977
0.964000 0.518254 0.862616
0.105336 0.646087 0.876871
0.214424 0.644914 0.874509
0.323511 0.643741 0.872148
0.432599 0.642567 0.869787
0.544876 0.641394 0.867425
0.660828 0.640220 0.865064
0.776780 0.639047 0.862703
0.892732 0.637874 0.860341
0.964000 0.636700 0.857980
0.101091 0.764534 0.872235
0.210179 0.763360 0.869873
0.319267 0.762187 0.867512
0.428355 0.761014 0.865151
0.540365 0.759840 0.862789
0.656316 0.758667 0.860428
0.772268 0.757493 0.858067
0.888220 0.756320 0.855705
0.964000 0.755147 0.853344
0.096846 0.882980 0.867599
0.205934 0.881807 0.865238
0.315022 0.880633 0.862876
0.424110 0.879460 0.860515
0.535853 0.878287 0.858154
0.651805 0.877113 0.855792
0.767756 0.875940 0.853431
0.883708 0.874766 0.851070
0.964000 0.873593 0.848708
0.092602 0.980000 0.862963
0.201689 0.980000 0.860602
0.310777 0.980000 0.858240
0.419865 0.980000 0.855879
0.531341 0.980000 0.853518
0.647293 0.980000 0.851156
0.763245 0.980000 0.848795
0.879196 0.980000 0.846434
0.964000 0.980000 0.844072
0.125735 0.071776 0.988000
0.234823 0.070651 0.988000
0.343911 0.069527 0.988000
0.452999 0.068402 0.988000
0.566559 0.067277 0.988000
0.682511 0.066152 0.988000
0.798463 0.065027 0.988000
0.914415 0.063903 0.988000
0.964000 0.062778 0.988000
0.121490 0.185318 0.988000
0.230578 0.184193 0.988000
0.339666 0.183068 0.988000
0.448754 0.181944 0.988000
0.562048 0.180819 0.988000
0.677999 0.179694 0.988000
0.793951 0.178569 0.988000
0.909903 0.177444 0.988000
0.964000 0.176320 0.988000
0.117246 0.298860 0.988000
0.226333 0.297735 0.988000
0.335421 0.296610 0.988000
0.444509 0.295485 0.988000
0.557536 0.294361 0.988000
0.673488 0.293236 0.988000
0.789439 0.292111 0.988000
0.905391 0.290986 0.988000
0.964000 0.289861 0.988000
0.113001 0.412402 0.988000
0.222089 0.411277 0.988000
0.331177 0.410152 0.988000
0.440264 0.409027 0.988000
0.553024 0.407902 0.988000
0.668976 0.406778 0.988000
0.784928 0.405653 0.988000
0.900879 0.404528 0.988000
0.964000 0.403403 0.987851
0.108756 0.527194 0.988000
0.217844 0.526020 0.988000
0.326932 0.524847 0.988000
0.436020 0.523673 0.988000
0.548512 0.522500 0.988000
0.664464 0.521327 0.988000
0.780416 0.520153 0.987938
0.896368 0.518980 0.985577
0.964000 0.517806 0.983215
0.104511 0.645640 0.988000
0.213599 0.644467 0.988000
0.322687 0.643293 0.988000
0.431775 0.642120 0.988000
0.544000 0.640946 0.988000
0.659952 0.639773 0.985664
0.775904 0.638600 0.983302
0.891856 0.637426 0.980941
0.964000 0.636253 0.978579
0.100267 0.764086 0.988000
0.209354 0.762913 0.988000
0.318442 0.761740 0.988000
0.427530 0.760566 0.985750
0.539488 0.759393 0.983389
0.655440 0.758219 0.981028
0.771392 0.757046 0.978666
0.887344 0.755873 0.976305
0.964000 0.754699 0.973944
0.096022 0.882533 0.988000
0.205110 0.881359 0.985837
0.314198 0.880186 0.983476
0.423285 0.879013 0.981115
0.534977 0.877839 0.978753
0.650928 0.876666 0.976392
0.766880 0.875492 0.974031
0.882832 0.874319 0.971669
0.964000 0.873146 0.969308
0.091777 0.980000 0.983563
0.200865 0.980000 0.981201
0.309953 0.980000 0.978840
0.419041 0.980000 0.976479
0.530465 0.980000 0.974117
0.646417 0.980000 0.971756
0.762368 0.980000 0.969395
0.878320 0.980000 0.967033
0.964000 0.980000 0.964672
