app/src/main/assets/luts/korean.cube
TITLE "Lumi korean portrait LUT v3"
LUT_3D_SIZE 9
DOMAIN_MIN 0.0 0.0 0.0
DOMAIN_MAX 1.0 1.0 1.0
0.050184 0.037296 0.024300
0.185684 0.037296 0.024300
0.321184 0.037296 0.024300
0.456684 0.037296 0.024300
0.587816 0.037296 0.024300
0.702316 0.037296 0.024300
0.816816 0.037296 0.024300
0.931316 0.037296 0.024300
1.000000 0.037296 0.024300
0.050184 0.171296 0.024300
0.185684 0.171296 0.024300
0.321184 0.171296 0.024300
0.456684 0.171296 0.024300
0.587816 0.171296 0.024300
0.702316 0.171296 0.024300
0.816816 0.171296 0.024300
0.931316 0.171296 0.024300
1.000000 0.171296 0.024300
0.050184 0.305296 0.024300
0.185684 0.305296 0.024300
0.321184 0.305296 0.024300
0.456684 0.305296 0.024300
0.587816 0.305296 0.024300
0.702316 0.305296 0.024300
0.816816 0.305296 0.024300
0.931316 0.305296 0.024300
1.000000 0.305296 0.024300
0.050184 0.439296 0.024300
0.185684 0.439296 0.024300
0.321184 0.439296 0.024300
0.456684 0.439296 0.024300
0.587816 0.439296 0.024300
0.702316 0.439296 0.024300
0.816816 0.439296 0.024300
0.931316 0.439296 0.024300
1.000000 0.439296 0.024300
0.050184 0.570704 0.024300
0.185684 0.570704 0.024300
0.321184 0.570704 0.024300
0.456684 0.570704 0.024300
0.587816 0.570704 0.024300
0.702316 0.570704 0.024300
0.816816 0.570704 0.024300
0.931316 0.570704 0.024300
1.000000 0.570704 0.024300
0.050184 0.686704 0.024300
0.185684 0.686704 0.024300
0.321184 0.686704 0.024300
0.456684 0.686704 0.024300
0.587816 0.686704 0.024300
0.702316 0.686704 0.024300
0.816816 0.686704 0.024300
0.931316 0.686704 0.024300
1.000000 0.686704 0.024300
0.050184 0.802704 0.024300
0.185684 0.802704 0.024300
0.321184 0.802704 0.024300
0.456684 0.802704 0.024300
0.587816 0.802704 0.024300
0.702316 0.802704 0.024300
0.816816 0.802704 0.024300
0.931316 0.802704 0.024300
1.000000 0.802704 0.024300
0.050184 0.918704 0.024300
0.185684 0.918704 0.024300
0.321184 0.918704 0.024300
0.456684 0.918704 0.024300
0.587816 0.918704 0.024300
0.702316 0.918704 0.024300
0.816816 0.918704 0.024300
0.931316 0.918704 0.024300
1.000000 0.918704 0.024300
0.050184 1.000000 0.024300
0.185684 1.000000 0.024300
0.321184 1.000000 0.024300
0.456684 1.000000 0.024300
0.587816 1.000000 0.024300
0.702316 1.000000 0.024300
0.816816 1.000000 0.024300
0.931316 1.000000 0.024300
1.000000 1.000000 0.024300
0.050184 0.037296 0.155550
0.185684 0.037296 0.155550
0.321184 0.037296 0.155550
0.456684 0.037296 0.155550
0.587816 0.037296 0.155550
0.702316 0.037296 0.155550
0.816816 0.037296 0.155550
0.931316 0.037296 0.155550
1.000000 0.037296 0.155550
0.050184 0.171296 0.155550
0.185684 0.171296 0.155550
0.321184 0.171296 0.155550
0.456684 0.171296 0.155550
0.587816 0.171296 0.155550
0.702316 0.171296 0.155550
0.816816 0.171296 0.155550
0.931316 0.171296 0.155550
1.000000 0.171296 0.155550
0.050184 0.305296 0.155550
0.185684 0.305296 0.155550
0.321184 0.305296 0.155550
0.456684 0.305296 0.155550
0.587816 0.305296 0.155550
0.702316 0.305296 0.155550
0.816816 0.305296 0.155550
0.931316 0.305296 0.155550
1.000000 0.305296 0.155550
0.050184 0.439296 0.155550
0.185684 0.439296 0.155550
0.321184 0.439296 0.155550
0.456684 0.439296 0.155550
0.587816 0.439296 0.155550
0.702316 0.439296 0.155550
0.816816 0.439296 0.155550
0.931316 0.439296 0.155550
1.000000 0.439296 0.155550
0.050184 0.570704 0.155550
0.185684 0.570704 0.155550
0.321184 0.570704 0.155550
0.456684 0.570704 0.155550
0.587816 0.570704 0.155550
0.702316 0.570704 0.155550
0.816816 0.570704 0.155550
0.931316 0.570704 0.155550
1.000000 0.570704 0.155550
0.050184 0.686704 0.155550
0.185684 0.686704 0.155550
0.321184 0.686704 0.155550
0.456684 0.686704 0.155550
0.587816 0.686704 0.155550
0.702316 0.686704 0.155550
0.816816 0.686704 0.155550
0.931316 0.686704 0.155550
1.000000 0.686704 0.155550
0.050184 0.802704 0.155550
0.185684 0.802704 0.155550
0.321184 0.802704 0.155550
0.456684 0.802704 0.155550
0.587816 0.802704 0.155550
0.702316 0.802704 0.155550
0.816816 0.802704 0.155550
0.931316 0.802704 0.155550
1.000000 0.802704 0.155550
0.050184 0.918704 0.155550
0.185684 0.918704 0.155550
0.321184 0.918704 0.155550
0.456684 0.918704 0.155550
0.587816 0.918704 0.155550
0.702316 0.918704 0.155550
0.816816 0.918704 0.155550
0.931316 0.918704 0.155550
1.000000 0.918704 0.155550
0.050184 1.000000 0.155550
0.185684 1.000000 0.155550
0.321184 1.000000 0.155550
0.456684 1.000000 0.155550
0.587816 1.000000 0.155550
0.702316 1.000000 0.155550
0.816816 1.000000 0.155550
0.931316 1.000000 0.155550
1.000000 1.000000 0.155550
0.050184 0.037296 0.286800
0.185684 0.037296 0.286800
0.321184 0.037296 0.286800
0.456684 0.037296 0.286800
0.587816 0.037296 0.286800
0.702316 0.037296 0.286800
0.816816 0.037296 0.286800
0.931316 0.037296 0.286800
1.000000 0.037296 0.286800
0.050184 0.171296 0.286800
0.185684 0.171296 0.286800
0.321184 0.171296 0.286800
0.456684 0.171296 0.286800
0.587816 0.171296 0.286800
0.702316 0.171296 0.286800
0.816816 0.171296 0.286800
0.931316 0.171296 0.286800
1.000000 0.171296 0.286800
0.050184 0.305296 0.286800
0.185684 0.305296 0.286800
0.321184 0.305296 0.286800
0.456684 0.305296 0.286800
0.587816 0.305296 0.286800
0.702316 0.305296 0.286800
0.816816 0.305296 0.286800
0.931316 0.305296 0.286800
1.000000 0.305296 0.286800
0.050184 0.439296 0.286800
0.185684 0.439296 0.286800
0.321184 0.439296 0.286800
0.456684 0.439296 0.286800
0.587816 0.439296 0.286800
0.702316 0.439296 0.286800
0.816816 0.439296 0.286800
0.931316 0.439296 0.286800
1.000000 0.439296 0.286800
0.050184 0.570704 0.286800
0.185684 0.570704 0.286800
0.321184 0.570704 0.286800
0.456684 0.570704 0.286800
0.587816 0.570704 0.286800
0.702316 0.570704 0.286800
0.816816 0.570704 0.286800
0.931316 0.570704 0.286800
1.000000 0.570704 0.286800
0.050184 0.686704 0.286800
0.185684 0.686704 0.286800
0.321184 0.686704 0.286800
0.456684 0.686704 0.286800
0.587816 0.686704 0.286800
0.702316 0.686704 0.286800
0.816816 0.686704 0.286800
0.931316 0.686704 0.286800
1.000000 0.686704 0.286800
0.050184 0.802704 0.286800
0.185684 0.802704 0.286800
0.321184 0.802704 0.286800
0.456684 0.802704 0.286800
0.587816 0.802704 0.286800
0.702316 0.802704 0.286800
0.816816 0.802704 0.286800
0.931316 0.802704 0.286800
1.000000 0.802704 0.286800
0.050184 0.918704 0.286800
0.185684 0.918704 0.286800
0.321184 0.918704 0.286800
0.456684 0.918704 0.286800
0.587816 0.918704 0.286800
0.702316 0.918704 0.286800
0.816816 0.918704 0.286800
0.931316 0.918704 0.286800
1.000000 0.918704 0.286800
0.050184 1.000000 0.286800
0.185684 1.000000 0.286800
0.321184 1.000000 0.286800
0.456684 1.000000 0.286800
0.587816 1.000000 0.286800
0.702316 1.000000 0.286800
0.816816 1.000000 0.286800
0.931316 1.000000 0.286800
1.000000 1.000000 0.286800
0.050184 0.037296 0.418050
0.185684 0.037296 0.418050
0.321184 0.037296 0.418050
0.456684 0.037296 0.418050
0.587816 0.037296 0.418050
0.702316 0.037296 0.418050
0.816816 0.037296 0.418050
0.931316 0.037296 0.418050
1.000000 0.037296 0.418050
0.050184 0.171296 0.418050
0.185684 0.171296 0.418050
0.321184 0.171296 0.418050
0.456684 0.171296 0.418050
0.587816 0.171296 0.418050
0.702316 0.171296 0.418050
0.816816 0.171296 0.418050
0.931316 0.171296 0.418050
1.000000 0.171296 0.418050
0.050184 0.305296 0.418050
0.185684 0.305296 0.418050
0.321184 0.305296 0.418050
0.456684 0.305296 0.418050
0.587816 0.305296 0.418050
0.702316 0.305296 0.418050
0.816816 0.305296 0.418050
0.931316 0.305296 0.418050
1.000000 0.305296 0.418050
0.050184 0.439296 0.418050
0.185684 0.439296 0.418050
0.321184 0.439296 0.418050
0.456684 0.439296 0.418050
0.587816 0.439296 0.418050
0.702316 0.439296 0.418050
0.816816 0.439296 0.418050
0.931316 0.439296 0.418050
1.000000 0.439296 0.418050
0.050184 0.570704 0.418050
0.185684 0.570704 0.418050
0.321184 0.570704 0.418050
0.456684 0.570704 0.418050
0.587816 0.570704 0.418050
0.702316 0.570704 0.418050
0.816816 0.570704 0.418050
0.931316 0.570704 0.418050
1.000000 0.570704 0.418050
0.050184 0.686704 0.418050
0.185684 0.686704 0.418050
0.321184 0.686704 0.418050
0.456684 0.686704 0.418050
0.587816 0.686704 0.418050
0.702316 0.686704 0.418050
0.816816 0.686704 0.418050
0.931316 0.686704 0.418050
1.000000 0.686704 0.418050
0.050184 0.802704 0.418050
0.185684 0.802704 0.418050
0.321184 0.802704 0.418050
0.456684 0.802704 0.418050
0.587816 0.802704 0.418050
0.702316 0.802704 0.418050
0.816816 0.802704 0.418050
0.931316 0.802704 0.418050
1.000000 0.802704 0.418050
0.050184 0.918704 0.418050
0.185684 0.918704 0.418050
0.321184 0.918704 0.418050
0.456684 0.918704 0.418050
0.587816 0.918704 0.418050
0.702316 0.918704 0.418050
0.816816 0.918704 0.418050
0.931316 0.918704 0.418050
1.000000 0.918704 0.418050
0.050184 1.000000 0.418050
0.185684 1.000000 0.418050
0.321184 1.000000 0.418050
0.456684 1.000000 0.418050
0.587816 1.000000 0.418050
0.702316 1.000000 0.418050
0.816816 1.000000 0.418050
0.931316 1.000000 0.418050
1.000000 1.000000 0.418050
0.050184 0.037296 0.548820
0.185684 0.037296 0.548820
0.321184 0.037296 0.548820
0.456684 0.037296 0.548820
0.587816 0.037296 0.548820
0.702316 0.037296 0.548820
0.816816 0.037296 0.548820
0.931316 0.037296 0.548820
1.000000 0.037296 0.548820
0.050184 0.171296 0.548820
0.185684 0.171296 0.548820
0.321184 0.171296 0.548820
0.456684 0.171296 0.548820
0.587816 0.171296 0.548820
0.702316 0.171296 0.548820
0.816816 0.171296 0.548820
0.931316 0.171296 0.548820
1.000000 0.171296 0.548820
0.050184 0.305296 0.548820
0.185684 0.305296 0.548820
0.321184 0.305296 0.548820
0.456684 0.305296 0.548820
0.587816 0.305296 0.548820
0.702316 0.305296 0.548820
0.816816 0.305296 0.548820
0.931316 0.305296 0.548820
1.000000 0.305296 0.548820
0.050184 0.439296 0.548820
0.185684 0.439296 0.548820
0.321184 0.439296 0.548820
0.456684 0.439296 0.548820
0.587816 0.439296 0.548820
0.702316 0.439296 0.548820
0.816816 0.439296 0.548820
0.931316 0.439296 0.548820
1.000000 0.439296 0.548820
0.050184 0.570704 0.548820
0.185684 0.570704 0.548820
0.321184 0.570704 0.548820
0.456684 0.570704 0.548820
0.587816 0.570704 0.548820
0.702316 0.570704 0.548820
0.816816 0.570704 0.548820
0.931316 0.570704 0.548820
1.000000 0.570704 0.548820
0.050184 0.686704 0.548820
0.185684 0.686704 0.548820
0.321184 0.686704 0.548820
0.456684 0.686704 0.548820
0.587816 0.686704 0.548820
0.702316 0.686704 0.548820
0.816816 0.686704 0.548820
0.931316 0.686704 0.548820
1.000000 0.686704 0.548820
0.050184 0.802704 0.548820
0.185684 0.802704 0.548820
0.321184 0.802704 0.548820
0.456684 0.802704 0.548820
0.587816 0.802704 0.548820
0.702316 0.802704 0.548820
0.816816 0.802704 0.548820
0.931316 0.802704 0.548820
1.000000 0.802704 0.548820
0.050184 0.918704 0.548820
0.185684 0.918704 0.548820
0.321184 0.918704 0.548820
0.456684 0.918704 0.548820
0.587816 0.918704 0.548820
0.702316 0.918704 0.548820
0.816816 0.918704 0.548820
0.931316 0.918704 0.548820
1.000000 0.918704 0.548820
0.050184 1.000000 0.548820
0.185684 1.000000 0.548820
0.321184 1.000000 0.548820
0.456684 1.000000 0.548820
0.587816 1.000000 0.548820
0.702316 1.000000 0.548820
0.816816 1.000000 0.548820
0.931316 1.000000 0.548820
1.000000 1.000000 0.548820
0.050184 0.037296 0.670070
0.185684 0.037296 0.670070
0.321184 0.037296 0.670070
0.456684 0.037296 0.670070
0.587816 0.037296 0.670070
0.702316 0.037296 0.670070
0.816816 0.037296 0.670070
0.931316 0.037296 0.670070
1.000000 0.037296 0.670070
0.050184 0.171296 0.670070
0.185684 0.171296 0.670070
0.321184 0.171296 0.670070
0.456684 0.171296 0.670070
0.587816 0.171296 0.670070
0.702316 0.171296 0.670070
0.816816 0.171296 0.670070
0.931316 0.171296 0.670070
1.000000 0.171296 0.670070
0.050184 0.305296 0.670070
0.185684 0.305296 0.670070
0.321184 0.305296 0.670070
0.456684 0.305296 0.670070
0.587816 0.305296 0.670070
0.702316 0.305296 0.670070
0.816816 0.305296 0.670070
0.931316 0.305296 0.670070
1.000000 0.305296 0.670070
0.050184 0.439296 0.670070
0.185684 0.439296 0.670070
0.321184 0.439296 0.670070
0.456684 0.439296 0.670070
0.587816 0.439296 0.670070
0.702316 0.439296 0.670070
0.816816 0.439296 0.670070
0.931316 0.439296 0.670070
1.000000 0.439296 0.670070
0.050184 0.570704 0.670070
0.185684 0.570704 0.670070
0.321184 0.570704 0.670070
0.456684 0.570704 0.670070
0.587816 0.570704 0.670070
0.702316 0.570704 0.670070
0.816816 0.570704 0.670070
0.931316 0.570704 0.670070
1.000000 0.570704 0.670070
0.050184 0.686704 0.670070
0.185684 0.686704 0.670070
0.321184 0.686704 0.670070
0.456684 0.686704 0.670070
0.587816 0.686704 0.670070
0.702316 0.686704 0.670070
0.816816 0.686704 0.670070
0.931316 0.686704 0.670070
1.000000 0.686704 0.670070
0.050184 0.802704 0.670070
0.185684 0.802704 0.670070
0.321184 0.802704 0.670070
0.456684 0.802704 0.670070
0.587816 0.802704 0.670070
0.702316 0.802704 0.670070
0.816816 0.802704 0.670070
0.931316 0.802704 0.670070
1.000000 0.802704 0.670070
0.050184 0.918704 0.670070
0.185684 0.918704 0.670070
0.321184 0.918704 0.670070
0.456684 0.918704 0.670070
0.587816 0.918704 0.670070
0.702316 0.918704 0.670070
0.816816 0.918704 0.670070
0.931316 0.918704 0.670070
1.000000 0.918704 0.670070
0.050184 1.000000 0.670070
0.185684 1.000000 0.670070
0.321184 1.000000 0.670070
0.456684 1.000000 0.670070
0.587816 1.000000 0.670070
0.702316 1.000000 0.670070
0.816816 1.000000 0.670070
0.931316 1.000000 0.670070
1.000000 1.000000 0.670070
0.050184 0.037296 0.791320
0.185684 0.037296 0.791320
0.321184 0.037296 0.791320
0.456684 0.037296 0.791320
0.587816 0.037296 0.791320
0.702316 0.037296 0.791320
0.816816 0.037296 0.791320
0.931316 0.037296 0.791320
1.000000 0.037296 0.791320
0.050184 0.171296 0.791320
0.185684 0.171296 0.791320
0.321184 0.171296 0.791320
0.456684 0.171296 0.791320
0.587816 0.171296 0.791320
0.702316 0.171296 0.791320
0.816816 0.171296 0.791320
0.931316 0.171296 0.791320
1.000000 0.171296 0.791320
0.050184 0.305296 0.791320
0.185684 0.305296 0.791320
0.321184 0.305296 0.791320
0.456684 0.305296 0.791320
0.587816 0.305296 0.791320
0.702316 0.305296 0.791320
0.816816 0.305296 0.791320
0.931316 0.305296 0.791320
1.000000 0.305296 0.791320
0.050184 0.439296 0.791320
0.185684 0.439296 0.791320
0.321184 0.439296 0.791320
0.456684 0.439296 0.791320
0.587816 0.439296 0.791320
0.702316 0.439296 0.791320
0.816816 0.439296 0.791320
0.931316 0.439296 0.791320
1.000000 0.439296 0.791320
0.050184 0.570704 0.791320
0.185684 0.570704 0.791320
0.321184 0.570704 0.791320
0.456684 0.570704 0.791320
0.587816 0.570704 0.791320
0.702316 0.570704 0.791320
0.816816 0.570704 0.791320
0.931316 0.570704 0.791320
1.000000 0.570704 0.791320
0.050184 0.686704 0.791320
0.185684 0.686704 0.791320
0.321184 0.686704 0.791320
0.456684 0.686704 0.791320
0.587816 0.686704 0.791320
0.702316 0.686704 0.791320
0.816816 0.686704 0.791320
0.931316 0.686704 0.791320
1.000000 0.686704 0.791320
0.050184 0.802704 0.791320
0.185684 0.802704 0.791320
0.321184 0.802704 0.791320
0.456684 0.802704 0.791320
0.587816 0.802704 0.791320
0.702316 0.802704 0.791320
0.816816 0.802704 0.791320
0.931316 0.802704 0.791320
1.000000 0.802704 0.791320
0.050184 0.918704 0.791320
0.185684 0.918704 0.791320
0.321184 0.918704 0.791320
0.456684 0.918704 0.791320
0.587816 0.918704 0.791320
0.702316 0.918704 0.791320
0.816816 0.918704 0.791320
0.931316 0.918704 0.791320
1.000000 0.918704 0.791320
0.050184 1.000000 0.791320
0.185684 1.000000 0.791320
0.321184 1.000000 0.791320
0.456684 1.000000 0.791320
0.587816 1.000000 0.791320
0.702316 1.000000 0.791320
0.816816 1.000000 0.791320
0.931316 1.000000 0.791320
1.000000 1.000000 0.791320
0.050184 0.037296 0.912570
0.185684 0.037296 0.912570
0.321184 0.037296 0.912570
0.456684 0.037296 0.912570
0.587816 0.037296 0.912570
0.702316 0.037296 0.912570
0.816816 0.037296 0.912570
0.931316 0.037296 0.912570
1.000000 0.037296 0.912570
0.050184 0.171296 0.912570
0.185684 0.171296 0.912570
0.321184 0.171296 0.912570
0.456684 0.171296 0.912570
0.587816 0.171296 0.912570
0.702316 0.171296 0.912570
0.816816 0.171296 0.912570
0.931316 0.171296 0.912570
1.000000 0.171296 0.912570
0.050184 0.305296 0.912570
0.185684 0.305296 0.912570
0.321184 0.305296 0.912570
0.456684 0.305296 0.912570
0.587816 0.305296 0.912570
0.702316 0.305296 0.912570
0.816816 0.305296 0.912570
0.931316 0.305296 0.912570
1.000000 0.305296 0.912570
0.050184 0.439296 0.912570
0.185684 0.439296 0.912570
0.321184 0.439296 0.912570
0.456684 0.439296 0.912570
0.587816 0.439296 0.912570
0.702316 0.439296 0.912570
0.816816 0.439296 0.912570
0.931316 0.439296 0.912570
1.000000 0.439296 0.912570
0.050184 0.570704 0.912570
0.185684 0.570704 0.912570
0.321184 0.570704 0.912570
0.456684 0.570704 0.912570
0.587816 0.570704 0.912570
0.702316 0.570704 0.912570
0.816816 0.570704 0.912570
0.931316 0.570704 0.912570
1.000000 0.570704 0.912570
0.050184 0.686704 0.912570
0.185684 0.686704 0.912570
0.321184 0.686704 0.912570
0.456684 0.686704 0.912570
0.587816 0.686704 0.912570
0.702316 0.686704 0.912570
0.816816 0.686704 0.912570
0.931316 0.686704 0.912570
1.000000 0.686704 0.912570
0.050184 0.802704 0.912570
0.185684 0.802704 0.912570
0.321184 0.802704 0.912570
0.456684 0.802704 0.912570
0.587816 0.802704 0.912570
0.702316 0.802704 0.912570
0.816816 0.802704 0.912570
0.931316 0.802704 0.912570
1.000000 0.802704 0.912570
0.050184 0.918704 0.912570
0.185684 0.918704 0.912570
0.321184 0.918704 0.912570
0.456684 0.918704 0.912570
0.587816 0.918704 0.912570
0.702316 0.918704 0.912570
0.816816 0.918704 0.912570
0.931316 0.918704 0.912570
1.000000 0.918704 0.912570
0.050184 1.000000 0.912570
0.185684 1.000000 0.912570
0.321184 1.000000 0.912570
0.456684 1.000000 0.912570
0.587816 1.000000 0.912570
0.702316 1.000000 0.912570
0.816816 1.000000 0.912570
0.931316 1.000000 0.912570
1.000000 1.000000 0.912570
0.050184 0.037296 1.000000
0.185684 0.037296 1.000000
0.321184 0.037296 1.000000
0.456684 0.037296 1.000000
0.587816 0.037296 1.000000
0.702316 0.037296 1.000000
0.816816 0.037296 1.000000
0.931316 0.037296 1.000000
1.000000 0.037296 1.000000
0.050184 0.171296 1.000000
0.185684 0.171296 1.000000
0.321184 0.171296 1.000000
0.456684 0.171296 1.000000
0.587816 0.171296 1.000000
0.702316 0.171296 1.000000
0.816816 0.171296 1.000000
0.931316 0.171296 1.000000
1.000000 0.171296 1.000000
0.050184 0.305296 1.000000
0.185684 0.305296 1.000000
0.321184 0.305296 1.000000
0.456684 0.305296 1.000000
0.587816 0.305296 1.000000
0.702316 0.305296 1.000000
0.816816 0.305296 1.000000
0.931316 0.305296 1.000000
1.000000 0.305296 1.000000
0.050184 0.439296 1.000000
0.185684 0.439296 1.000000
0.321184 0.439296 1.000000
0.456684 0.439296 1.000000
0.587816 0.439296 1.000000
0.702316 0.439296 1.000000
0.816816 0.439296 1.000000
0.931316 0.439296 1.000000
1.000000 0.439296 1.000000
0.050184 0.570704 1.000000
0.185684 0.570704 1.000000
0.321184 0.570704 1.000000
0.456684 0.570704 1.000000
0.587816 0.570704 1.000000
0.702316 0.570704 1.000000
0.816816 0.570704 1.000000
0.931316 0.570704 1.000000
1.000000 0.570704 1.000000
0.050184 0.686704 1.000000
0.185684 0.686704 1.000000
0.321184 0.686704 1.000000
0.456684 0.686704 1.000000
0.587816 0.686704 1.000000
0.702316 0.686704 1.000000
0.816816 0.686704 1.000000
0.931316 0.686704 1.000000
1.000000 0.686704 1.000000
0.050184 0.802704 1.000000
0.185684 0.802704 1.000000
0.321184 0.802704 1.000000
0.456684 0.802704 1.000000
0.587816 0.802704 1.000000
0.702316 0.802704 1.000000
0.816816 0.802704 1.000000
0.931316 0.802704 1.000000
1.000000 0.802704 1.000000
0.050184 0.918704 1.000000
0.185684 0.918704 1.000000
0.321184 0.918704 1.000000
0.456684 0.918704 1.000000
0.587816 0.918704 1.000000
0.702316 0.918704 1.000000
0.816816 0.918704 1.000000
0.931316 0.918704 1.000000
1.000000 0.918704 1.000000
0.050184 1.000000 1.000000
0.185684 1.000000 1.000000
0.321184 1.000000 1.000000
0.456684 1.000000 1.000000
0.587816 1.000000 1.000000
0.702316 1.000000 1.000000
0.816816 1.000000 1.000000
0.931316 1.000000 1.000000
1.000000 1.000000 1.000000
