app/src/main/assets/luts/neo.cube
TITLE "Lumi neo portrait LUT v3"
LUT_3D_SIZE 9
DOMAIN_MIN 0.0 0.0 0.0
DOMAIN_MAX 1.0 1.0 1.0
0.000000 0.020960 0.095840
0.089262 0.020960 0.094572
0.222012 0.020960 0.093304
0.354762 0.020960 0.092037
0.487512 0.020960 0.090769
0.615414 0.020960 0.089501
0.742164 0.020960 0.088233
0.868914 0.020960 0.086966
0.995664 0.020960 0.085698
0.000000 0.153460 0.093351
0.089262 0.153460 0.092083
0.222012 0.153460 0.090816
0.354762 0.153460 0.089548
0.487512 0.153460 0.088280
0.615414 0.153460 0.087012
0.742164 0.153460 0.085745
0.868914 0.153460 0.084477
0.995664 0.153460 0.083209
0.000000 0.285960 0.090862
0.089262 0.285960 0.089594
0.222012 0.285960 0.088327
0.354762 0.285960 0.087059
0.487512 0.285960 0.085791
0.615414 0.285960 0.084523
0.742164 0.285960 0.083256
0.868914 0.285960 0.081988
0.995664 0.285960 0.080720
0.000000 0.418460 0.088373
0.089262 0.418460 0.087106
0.222012 0.418460 0.085838
0.354762 0.418460 0.084570
0.487512 0.418460 0.083302
0.615414 0.418460 0.082035
0.742164 0.418460 0.080767
0.868914 0.418460 0.079499
0.995664 0.418460 0.078231
0.000000 0.549680 0.085884
0.089262 0.549680 0.084617
0.222012 0.549680 0.083349
0.354762 0.549680 0.082081
0.487512 0.549680 0.080813
0.615414 0.549680 0.079546
0.742164 0.549680 0.078278
0.868914 0.549680 0.077010
0.995664 0.549680 0.075742
0.000000 0.672180 0.083396
0.089262 0.672180 0.082128
0.222012 0.672180 0.080860
0.354762 0.672180 0.079592
0.487512 0.672180 0.078325
0.615414 0.672180 0.077057
0.742164 0.672180 0.075789
0.868914 0.672180 0.074521
0.995664 0.672180 0.073254
0.000000 0.794680 0.080907
0.089262 0.794680 0.079639
0.222012 0.794680 0.078371
0.354762 0.794680 0.077103
0.487512 0.794680 0.075836
0.615414 0.794680 0.074568
0.742164 0.794680 0.073300
0.868914 0.794680 0.072032
0.995664 0.794680 0.070765
0.000000 0.917180 0.078418
0.089262 0.917180 0.077150
0.222012 0.917180 0.075882
0.354762 0.917180 0.074615
0.487512 0.917180 0.073347
0.615414 0.917180 0.072079
0.742164 0.917180 0.070811
0.868914 0.917180 0.069544
0.995664 0.917180 0.068276
0.000000 1.000000 0.075929
0.089262 1.000000 0.074661
0.222012 1.000000 0.073393
0.354762 1.000000 0.072126
0.487512 1.000000 0.070858
0.615414 1.000000 0.069590
0.742164 1.000000 0.068322
0.868914 1.000000 0.067055
0.995664 1.000000 0.065787
0.000000 0.020960 0.227857
0.089262 0.020960 0.226589
0.222012 0.020960 0.225321
0.354762 0.020960 0.224053
0.487512 0.020960 0.222786
0.615414 0.020960 0.221518
0.742164 0.020960 0.220250
0.868914 0.020960 0.218982
0.995664 0.020960 0.217715
0.000000 0.153460 0.225368
0.089262 0.153460 0.224100
0.222012 0.153460 0.222832
0.354762 0.153460 0.221564
0.487512 0.153460 0.220297
0.615414 0.153460 0.219029
0.742164 0.153460 0.217761
0.868914 0.153460 0.216493
0.995664 0.153460 0.215226
0.000000 0.285960 0.222879
0.089262 0.285960 0.221611
0.222012 0.285960 0.220343
0.354762 0.285960 0.219076
0.487512 0.285960 0.217808
0.615414 0.285960 0.216540
0.742164 0.285960 0.215272
0.868914 0.285960 0.214005
0.995664 0.285960 0.212737
0.000000 0.418460 0.220390
0.089262 0.418460 0.219122
0.222012 0.418460 0.217854
0.354762 0.418460 0.216587
0.487512 0.418460 0.215319
0.615414 0.418460 0.214051
0.742164 0.418460 0.212783
0.868914 0.418460 0.211516
0.995664 0.418460 0.210248
0.000000 0.549680 0.217901
0.089262 0.549680 0.216633
0.222012 0.549680 0.215366
0.354762 0.549680 0.214098
0.487512 0.549680 0.212830
0.615414 0.549680 0.211562
0.742164 0.549680 0.210295
0.868914 0.549680 0.209027
0.995664 0.549680 0.207759
0.000000 0.672180 0.215412
0.089262 0.672180 0.214144
0.222012 0.672180 0.212877
0.354762 0.672180 0.211609
0.487512 0.672180 0.210341
0.615414 0.672180 0.209073
0.742164 0.672180 0.207806
0.868914 0.672180 0.206538
0.995664 0.672180 0.205270
0.000000 0.794680 0.212923
0.089262 0.794680 0.211656
0.222012 0.794680 0.210388
0.354762 0.794680 0.209120
0.487512 0.794680 0.207852
0.615414 0.794680 0.206585
0.742164 0.794680 0.205317
0.868914 0.794680 0.204049
0.995664 0.794680 0.202781
0.000000 0.917180 0.210434
0.089262 0.917180 0.209167
0.222012 0.917180 0.207899
0.354762 0.917180 0.206631
0.487512 0.917180 0.205363
0.615414 0.917180 0.204096
0.742164 0.917180 0.202828
0.868914 0.917180 0.201560
0.995664 0.917180 0.200292
0.000000 1.000000 0.207946
0.089262 1.000000 0.206678
0.222012 1.000000 0.205410
0.354762 1.000000 0.204142
0.487512 1.000000 0.202875
0.615414 1.000000 0.201607
0.742164 1.000000 0.200339
0.868914 1.000000 0.199071
0.995664 1.000000 0.197804
0.000000 0.020960 0.359873
0.089262 0.020960 0.358606
0.222012 0.020960 0.357338
0.354762 0.020960 0.356070
0.487512 0.020960 0.354802
0.615414 0.020960 0.353534
0.742164 0.020960 0.352267
0.868914 0.020960 0.350999
0.995664 0.020960 0.349731
0.000000 0.153460 0.357384
0.089262 0.153460 0.356117
0.222012 0.153460 0.354849
0.354762 0.153460 0.353581
0.487512 0.153460 0.352313
0.615414 0.153460 0.351046
0.742164 0.153460 0.349778
0.868914 0.153460 0.348510
0.995664 0.153460 0.347242
0.000000 0.285960 0.354896
0.089262 0.285960 0.353628
0.222012 0.285960 0.352360
0.354762 0.285960 0.351092
0.487512 0.285960 0.349824
0.615414 0.285960 0.348557
0.742164 0.285960 0.347289
0.868914 0.285960 0.346021
0.995664 0.285960 0.344753
0.000000 0.418460 0.352407
0.089262 0.418460 0.351139
0.222012 0.418460 0.349871
0.354762 0.418460 0.348603
0.487512 0.418460 0.347336
0.615414 0.418460 0.346068
0.742164 0.418460 0.344800
0.868914 0.418460 0.343532
0.995664 0.418460 0.342265
0.000000 0.549680 0.349918
0.089262 0.549680 0.348650
0.222012 0.549680 0.347382
0.354762 0.549680 0.346114
0.487512 0.549680 0.344847
0.615414 0.549680 0.343579
0.742164 0.549680 0.342311
0.868914 0.549680 0.341043
0.995664 0.549680 0.339776
0.000000 0.672180 0.347429
0.089262 0.672180 0.346161
0.222012 0.672180 0.344893
0.354762 0.672180 0.343626
0.487512 0.672180 0.342358
0.615414 0.672180 0.341090
0.742164 0.672180 0.339822
0.868914 0.672180 0.338555
0.995664 0.672180 0.337287
0.000000 0.794680 0.344940
0.089262 0.794680 0.343672
0.222012 0.794680 0.342404
0.354762 0.794680 0.341137
0.487512 0.794680 0.339869
0.615414 0.794680 0.338601
0.742164 0.794680 0.337333
0.868914 0.794680 0.336066
0.995664 0.794680 0.334798
0.000000 0.917180 0.342451
0.089262 0.917180 0.341183
0.222012 0.917180 0.339916
0.354762 0.917180 0.338648
0.487512 0.917180 0.337380
0.615414 0.917180 0.336112
0.742164 0.917180 0.334845
0.868914 0.917180 0.333577
0.995664 0.917180 0.332309
0.000000 1.000000 0.339962
0.089262 1.000000 0.338694
0.222012 1.000000 0.337427
0.354762 1.000000 0.336159
0.487512 1.000000 0.334891
0.615414 1.000000 0.333623
0.742164 1.000000 0.332356
0.868914 1.000000 0.331088
0.995664 1.000000 0.329820
0.000000 0.020960 0.491890
0.089262 0.020960 0.490622
0.222012 0.020960 0.489354
0.354762 0.020960 0.488087
0.487512 0.020960 0.486819
0.615414 0.020960 0.485551
0.742164 0.020960 0.484283
0.868914 0.020960 0.483016
0.995664 0.020960 0.481748
0.000000 0.153460 0.489401
0.089262 0.153460 0.488133
0.222012 0.153460 0.486866
0.354762 0.153460 0.485598
0.487512 0.153460 0.484330
0.615414 0.153460 0.483062
0.742164 0.153460 0.481794
0.868914 0.153460 0.480527
0.995664 0.153460 0.479259
0.000000 0.285960 0.486912
0.089262 0.285960 0.485644
0.222012 0.285960 0.484377
0.354762 0.285960 0.483109
0.487512 0.285960 0.481841
0.615414 0.285960 0.480573
0.742164 0.285960 0.479306
0.868914 0.285960 0.478038
0.995664 0.285960 0.476770
0.000000 0.418460 0.484423
0.089262 0.418460 0.483156
0.222012 0.418460 0.481888
0.354762 0.418460 0.480620
0.487512 0.418460 0.479352
0.615414 0.418460 0.478084
0.742164 0.418460 0.476817
0.868914 0.418460 0.475549
0.995664 0.418460 0.474281
0.000000 0.549680 0.481934
0.089262 0.549680 0.480667
0.222012 0.549680 0.479399
0.354762 0.549680 0.478131
0.487512 0.549680 0.476863
0.615414 0.549680 0.475596
0.742164 0.549680 0.474328
0.868914 0.549680 0.473060
0.995664 0.549680 0.471792
0.000000 0.672180 0.479446
0.089262 0.672180 0.478178
0.222012 0.672180 0.476910
0.354762 0.672180 0.475642
0.487512 0.672180 0.474374
0.615414 0.672180 0.473107
0.742164 0.672180 0.471839
0.868914 0.672180 0.470571
0.995664 0.672180 0.469303
0.000000 0.794680 0.476957
0.089262 0.794680 0.475689
0.222012 0.794680 0.474421
0.354762 0.794680 0.473153
0.487512 0.794680 0.471886
0.615414 0.794680 0.470618
0.742164 0.794680 0.469350
0.868914 0.794680 0.468082
0.995664 0.794680 0.466815
0.000000 0.917180 0.474468
0.089262 0.917180 0.473200
0.222012 0.917180 0.471932
0.354762 0.917180 0.470664
0.487512 0.917180 0.469397
0.615414 0.917180 0.468129
0.742164 0.917180 0.466861
0.868914 0.917180 0.465593
0.995664 0.917180 0.464326
0.000000 1.000000 0.471979
0.089262 1.000000 0.470711
0.222012 1.000000 0.469443
0.354762 1.000000 0.468176
0.487512 1.000000 0.466908
0.615414 1.000000 0.465640
0.742164 1.000000 0.464372
0.868914 1.000000 0.463105
0.995664 1.000000 0.461837
0.000000 0.020960 0.615202
0.089262 0.020960 0.614102
0.222012 0.020960 0.613001
0.354762 0.020960 0.611901
0.487512 0.020960 0.610801
0.615414 0.020960 0.609700
0.742164 0.020960 0.608600
0.868914 0.020960 0.607500
0.995664 0.020960 0.606399
0.000000 0.153460 0.613042
0.089262 0.153460 0.611941
0.222012 0.153460 0.610841
0.354762 0.153460 0.609741
0.487512 0.153460 0.608640
0.615414 0.153460 0.607540
0.742164 0.153460 0.606440
0.868914 0.153460 0.605340
0.995664 0.153460 0.604239
0.000000 0.285960 0.610882
0.089262 0.285960 0.609781
0.222012 0.285960 0.608681
0.354762 0.285960 0.607581
0.487512 0.285960 0.606480
0.615414 0.285960 0.605380
0.742164 0.285960 0.604280
0.868914 0.285960 0.603179
0.995664 0.285960 0.602079
0.000000 0.418460 0.608721
0.089262 0.418460 0.607621
0.222012 0.418460 0.606521
0.354762 0.418460 0.605420
0.487512 0.418460 0.604320
0.615414 0.418460 0.603220
0.742164 0.418460 0.602120
0.868914 0.418460 0.601019
0.995664 0.418460 0.599919
0.000000 0.549680 0.606561
0.089262 0.549680 0.605461
0.222012 0.549680 0.604361
0.354762 0.549680 0.603260
0.487512 0.549680 0.602160
0.615414 0.549680 0.601060
0.742164 0.549680 0.599959
0.868914 0.549680 0.598859
0.995664 0.549680 0.597759
0.000000 0.672180 0.604401
0.089262 0.672180 0.603301
0.222012 0.672180 0.602200
0.354762 0.672180 0.601100
0.487512 0.672180 0.600000
0.615414 0.672180 0.598900
0.742164 0.672180 0.597799
0.868914 0.672180 0.596699
0.995664 0.672180 0.595599
0.000000 0.794680 0.602241
0.089262 0.794680 0.601141
0.222012 0.794680 0.600040
0.354762 0.794680 0.598940
0.487512 0.794680 0.597840
0.615414 0.794680 0.596739
0.742164 0.794680 0.595639
0.868914 0.794680 0.594539
0.995664 0.794680 0.593438
0.000000 0.917180 0.600081
0.089262 0.917180 0.598980
0.222012 0.917180 0.597880
0.354762 0.917180 0.596780
0.487512 0.917180 0.595680
0.615414 0.917180 0.594579
0.742164 0.917180 0.593479
0.868914 0.917180 0.592379
0.995664 0.917180 0.591278
0.000000 1.000000 0.597921
0.089262 1.000000 0.596820
0.222012 1.000000 0.595720
0.354762 1.000000 0.594620
0.487512 1.000000 0.593519
0.615414 1.000000 0.592419
0.742164 1.000000 0.591319
0.868914 1.000000 0.590218
0.995664 1.000000 0.589118
0.000000 0.020960 0.729782
0.089262 0.020960 0.728682
0.222012 0.020960 0.727582
0.354762 0.020960 0.726481
0.487512 0.020960 0.725381
0.615414 0.020960 0.724281
0.742164 0.020960 0.723180
0.868914 0.020960 0.722080
0.995664 0.020960 0.720980
0.000000 0.153460 0.727622
0.089262 0.153460 0.726522
0.222012 0.153460 0.725422
0.354762 0.153460 0.724321
0.487512 0.153460 0.723221
0.615414 0.153460 0.722121
0.742164 0.153460 0.721020
0.868914 0.153460 0.719920
0.995664 0.153460 0.718820
0.000000 0.285960 0.725462
0.089262 0.285960 0.724362
0.222012 0.285960 0.723261
0.354762 0.285960 0.722161
0.487512 0.285960 0.721061
0.615414 0.285960 0.719960
0.742164 0.285960 0.718860
0.868914 0.285960 0.717760
0.995664 0.285960 0.716660
0.000000 0.418460 0.723302
0.089262 0.418460 0.722202
0.222012 0.418460 0.721101
0.354762 0.418460 0.720001
0.487512 0.418460 0.718901
0.615414 0.418460 0.717800
0.742164 0.418460 0.716700
0.868914 0.418460 0.715600
0.995664 0.418460 0.714499
0.000000 0.549680 0.721142
0.089262 0.549680 0.720041
0.222012 0.549680 0.718941
0.354762 0.549680 0.717841
0.487512 0.549680 0.716740
0.615414 0.549680 0.715640
0.742164 0.549680 0.714540
0.868914 0.549680 0.713440
0.995664 0.549680 0.712339
0.000000 0.672180 0.718982
0.089262 0.672180 0.717881
0.222012 0.672180 0.716781
0.354762 0.672180 0.715681
0.487512 0.672180 0.714580
0.615414 0.672180 0.713480
0.742164 0.672180 0.712380
0.868914 0.672180 0.711279
0.995664 0.672180 0.710179
0.000000 0.794680 0.716821
0.089262 0.794680 0.715721
0.222012 0.794680 0.714621
0.354762 0.794680 0.713520
0.487512 0.794680 0.712420
0.615414 0.794680 0.711320
0.742164 0.794680 0.710220
0.868914 0.794680 0.709119
0.995664 0.794680 0.708019
0.000000 0.917180 0.714661
0.089262 0.917180 0.713561
0.222012 0.917180 0.712461
0.354762 0.917180 0.711360
0.487512 0.917180 0.710260
0.615414 0.917180 0.709160
0.742164 0.917180 0.708059
0.868914 0.917180 0.706959
0.995664 0.917180 0.705859
0.000000 1.000000 0.712501
0.089262 1.000000 0.711401
0.222012 1.000000 0.710300
0.354762 1.000000 0.709200
0.487512 1.000000 0.708100
0.615414 1.000000 0.707000
0.742164 1.000000 0.705899
0.868914 1.000000 0.704799
0.995664 1.000000 0.703699
0.000000 0.020960 0.844363
0.089262 0.020960 0.843263
0.222012 0.020960 0.842162
0.354762 0.020960 0.841062
0.487512 0.020960 0.839962
0.615414 0.020960 0.838861
0.742164 0.020960 0.837761
0.868914 0.020960 0.836661
0.995664 0.020960 0.835560
0.000000 0.153460 0.842203
0.089262 0.153460 0.841102
0.222012 0.153460 0.840002
0.354762 0.153460 0.838902
0.487512 0.153460 0.837801
0.615414 0.153460 0.836701
0.742164 0.153460 0.835601
0.868914 0.153460 0.834500
0.995664 0.153460 0.833400
0.000000 0.285960 0.840043
0.089262 0.285960 0.838942
0.222012 0.285960 0.837842
0.354762 0.285960 0.836742
0.487512 0.285960 0.835641
0.615414 0.285960 0.834541
0.742164 0.285960 0.833441
0.868914 0.285960 0.832340
0.995664 0.285960 0.831240
0.000000 0.418460 0.837882
0.089262 0.418460 0.836782
0.222012 0.418460 0.835682
0.354762 0.418460 0.834581
0.487512 0.418460 0.833481
0.615414 0.418460 0.832381
0.742164 0.418460 0.831280
0.868914 0.418460 0.830180
0.995664 0.418460 0.829080
0.000000 0.549680 0.835722
0.089262 0.549680 0.834622
0.222012 0.549680 0.833522
0.354762 0.549680 0.832421
0.487512 0.549680 0.831321
0.615414 0.549680 0.830221
0.742164 0.549680 0.829120
0.868914 0.549680 0.828020
0.995664 0.549680 0.826920
0.000000 0.672180 0.833562
0.089262 0.672180 0.832462
0.222012 0.672180 0.831361
0.354762 0.672180 0.830261
0.487512 0.672180 0.829161
0.615414 0.672180 0.828060
0.742164 0.672180 0.826960
0.868914 0.672180 0.825860
0.995664 0.672180 0.824760
0.000000 0.794680 0.831402
0.089262 0.794680 0.830302
0.222012 0.794680 0.829201
0.354762 0.794680 0.828101
0.487512 0.794680 0.827001
0.615414 0.794680 0.825900
0.742164 0.794680 0.824800
0.868914 0.794680 0.823700
0.995664 0.794680 0.822599
0.000000 0.917180 0.829242
0.089262 0.917180 0.828141
0.222012 0.917180 0.827041
0.354762 0.917180 0.825941
0.487512 0.917180 0.824840
0.615414 0.917180 0.823740
0.742164 0.917180 0.822640
0.868914 0.917180 0.821540
0.995664 0.917180 0.820439
0.000000 1.000000 0.827082
0.089262 1.000000 0.825981
0.222012 1.000000 0.824881
0.354762 1.000000 0.823781
0.487512 1.000000 0.822680
0.615414 1.000000 0.821580
0.742164 1.000000 0.820480
0.868914 1.000000 0.819379
0.995664 1.000000 0.818279
0.000000 0.020960 0.958943
0.089262 0.020960 0.957843
0.222012 0.020960 0.956743
0.354762 0.020960 0.955642
0.487512 0.020960 0.954542
0.615414 0.020960 0.953442
0.742164 0.020960 0.952341
0.868914 0.020960 0.951241
0.995664 0.020960 0.950141
0.000000 0.153460 0.956783
0.089262 0.153460 0.955683
0.222012 0.153460 0.954583
0.354762 0.153460 0.953482
0.487512 0.153460 0.952382
0.615414 0.153460 0.951282
0.742164 0.153460 0.950181
0.868914 0.153460 0.949081
0.995664 0.153460 0.947981
0.000000 0.285960 0.954623
0.089262 0.285960 0.953523
0.222012 0.285960 0.952422
0.354762 0.285960 0.951322
0.487512 0.285960 0.950222
0.615414 0.285960 0.949121
0.742164 0.285960 0.948021
0.868914 0.285960 0.946921
0.995664 0.285960 0.945820
0.000000 0.418460 0.952463
0.089262 0.418460 0.951363
0.222012 0.418460 0.950262
0.354762 0.418460 0.949162
0.487512 0.418460 0.948062
0.615414 0.418460 0.946961
0.742164 0.418460 0.945861
0.868914 0.418460 0.944761
0.995664 0.418460 0.943660
0.000000 0.549680 0.950303
0.089262 0.549680 0.949202
0.222012 0.549680 0.948102
0.354762 0.549680 0.947002
0.487512 0.549680 0.945901
0.615414 0.549680 0.944801
0.742164 0.549680 0.943701
0.868914 0.549680 0.942600
0.995664 0.549680 0.941500
0.000000 0.672180 0.948143
0.089262 0.672180 0.947042
0.222012 0.672180 0.945942
0.354762 0.672180 0.944842
0.487512 0.672180 0.943741
0.615414 0.672180 0.942641
0.742164 0.672180 0.941541
0.868914 0.672180 0.940440
0.995664 0.672180 0.939340
0.000000 0.794680 0.945982
0.089262 0.794680 0.944882
0.222012 0.794680 0.943782
0.354762 0.794680 0.942681
0.487512 0.794680 0.941581
0.615414 0.794680 0.940481
0.742164 0.794680 0.939380
0.868914 0.794680 0.938280
0.995664 0.794680 0.937180
0.000000 0.917180 0.943822
0.089262 0.917180 0.942722
0.222012 0.917180 0.941622
0.354762 0.917180 0.940521
0.487512 0.917180 0.939421
0.615414 0.917180 0.938321
0.742164 0.917180 0.937220
0.868914 0.917180 0.936120
0.995664 0.917180 0.935020
0.000000 1.000000 0.941662
0.089262 1.000000 0.940562
0.222012 1.000000 0.939461
0.354762 1.000000 0.938361
0.487512 1.000000 0.937261
0.615414 1.000000 0.936160
0.742164 1.000000 0.935060
0.868914 1.000000 0.933960
0.995664 1.000000 0.932860
0.000000 0.020960 1.000000
0.089262 0.020960 1.000000
0.222012 0.020960 1.000000
0.354762 0.020960 1.000000
0.487512 0.020960 1.000000
0.615414 0.020960 1.000000
0.742164 0.020960 1.000000
0.868914 0.020960 1.000000
0.995664 0.020960 1.000000
0.000000 0.153460 1.000000
0.089262 0.153460 1.000000
0.222012 0.153460 1.000000
0.354762 0.153460 1.000000
0.487512 0.153460 1.000000
0.615414 0.153460 1.000000
0.742164 0.153460 1.000000
0.868914 0.153460 1.000000
0.995664 0.153460 1.000000
0.000000 0.285960 1.000000
0.089262 0.285960 1.000000
0.222012 0.285960 1.000000
0.354762 0.285960 1.000000
0.487512 0.285960 1.000000
0.615414 0.285960 1.000000
0.742164 0.285960 1.000000
0.868914 0.285960 1.000000
0.995664 0.285960 1.000000
0.000000 0.418460 1.000000
0.089262 0.418460 1.000000
0.222012 0.418460 1.000000
0.354762 0.418460 1.000000
0.487512 0.418460 1.000000
0.615414 0.418460 1.000000
0.742164 0.418460 1.000000
0.868914 0.418460 1.000000
0.995664 0.418460 1.000000
0.000000 0.549680 1.000000
0.089262 0.549680 1.000000
0.222012 0.549680 1.000000
0.354762 0.549680 1.000000
0.487512 0.549680 1.000000
0.615414 0.549680 1.000000
0.742164 0.549680 1.000000
0.868914 0.549680 1.000000
0.995664 0.549680 1.000000
0.000000 0.672180 1.000000
0.089262 0.672180 1.000000
0.222012 0.672180 1.000000
0.354762 0.672180 1.000000
0.487512 0.672180 1.000000
0.615414 0.672180 1.000000
0.742164 0.672180 1.000000
0.868914 0.672180 1.000000
0.995664 0.672180 1.000000
0.000000 0.794680 1.000000
0.089262 0.794680 1.000000
0.222012 0.794680 1.000000
0.354762 0.794680 1.000000
0.487512 0.794680 1.000000
0.615414 0.794680 1.000000
0.742164 0.794680 1.000000
0.868914 0.794680 1.000000
0.995664 0.794680 1.000000
0.000000 0.917180 1.000000
0.089262 0.917180 1.000000
0.222012 0.917180 1.000000
0.354762 0.917180 1.000000
0.487512 0.917180 1.000000
0.615414 0.917180 1.000000
0.742164 0.917180 1.000000
0.868914 0.917180 1.000000
0.995664 0.917180 1.000000
0.000000 1.000000 1.000000
0.089262 1.000000 1.000000
0.222012 1.000000 1.000000
0.354762 1.000000 1.000000
0.487512 1.000000 1.000000
0.615414 1.000000 1.000000
0.742164 1.000000 1.000000
0.868914 1.000000 1.000000
0.995664 1.000000 1.000000
