app/src/main/assets/luts/warm_portrait.cube
TITLE "Lumi warm_portrait portrait LUT v3"
LUT_3D_SIZE 9
DOMAIN_MIN 0.0 0.0 0.0
DOMAIN_MAX 1.0 1.0 1.0
0.073700 0.033080 0.014000
0.207950 0.033080 0.014000
0.342200 0.033080 0.014000
0.476450 0.033080 0.014000
0.603900 0.033080 0.014000
0.721150 0.033080 0.014000
0.838400 0.033080 0.014000
0.955650 0.033080 0.014000
1.000000 0.033080 0.014000
0.073700 0.164830 0.014000
0.207950 0.164830 0.014000
0.342200 0.164830 0.014000
0.476450 0.164830 0.014000
0.603900 0.164830 0.014000
0.721150 0.164830 0.014000
0.838400 0.164830 0.014000
0.955650 0.164830 0.014000
1.000000 0.164830 0.014000
0.073700 0.296580 0.014000
0.207950 0.296580 0.014000
0.342200 0.296580 0.014000
0.476450 0.296580 0.014000
0.603900 0.296580 0.014000
0.721150 0.296580 0.014000
0.838400 0.296580 0.014000
0.955650 0.296580 0.014000
1.000000 0.296580 0.014000
0.073700 0.428330 0.014000
0.207950 0.428330 0.014000
0.342200 0.428330 0.014000
0.476450 0.428330 0.014000
0.603900 0.428330 0.014000
0.721150 0.428330 0.014000
0.838400 0.428330 0.014000
0.955650 0.428330 0.014000
1.000000 0.428330 0.014000
0.073700 0.558160 0.014000
0.207950 0.558160 0.014000
0.342200 0.558160 0.014000
0.476450 0.558160 0.014000
0.603900 0.558160 0.014000
0.721150 0.558160 0.014000
0.838400 0.558160 0.014000
0.955650 0.558160 0.014000
1.000000 0.558160 0.014000
0.073700 0.677910 0.014000
0.207950 0.677910 0.014000
0.342200 0.677910 0.014000
0.476450 0.677910 0.014000
0.603900 0.677910 0.014000
0.721150 0.677910 0.014000
0.838400 0.677910 0.014000
0.955650 0.677910 0.014000
1.000000 0.677910 0.014000
0.073700 0.797660 0.014000
0.207950 0.797660 0.014000
0.342200 0.797660 0.014000
0.476450 0.797660 0.014000
0.603900 0.797660 0.014000
0.721150 0.797660 0.014000
0.838400 0.797660 0.014000
0.955650 0.797660 0.014000
1.000000 0.797660 0.014000
0.073700 0.917410 0.014000
0.207950 0.917410 0.014000
0.342200 0.917410 0.014000
0.476450 0.917410 0.014000
0.603900 0.917410 0.014000
0.721150 0.917410 0.014000
0.838400 0.917410 0.014000
0.955650 0.917410 0.014000
1.000000 0.917410 0.014000
0.073700 1.000000 0.014000
0.207950 1.000000 0.014000
0.342200 1.000000 0.014000
0.476450 1.000000 0.014000
0.603900 1.000000 0.014000
0.721150 1.000000 0.014000
0.838400 1.000000 0.014000
0.955650 1.000000 0.014000
1.000000 1.000000 0.014000
0.073700 0.033080 0.119288
0.207950 0.033080 0.119288
0.342200 0.033080 0.119288
0.476450 0.033080 0.119288
0.603900 0.033080 0.119288
0.721150 0.033080 0.119288
0.838400 0.033080 0.119288
0.955650 0.033080 0.119288
1.000000 0.033080 0.119288
0.073700 0.164830 0.119288
0.207950 0.164830 0.119288
0.342200 0.164830 0.119288
0.476450 0.164830 0.119288
0.603900 0.164830 0.119288
0.721150 0.164830 0.119288
0.838400 0.164830 0.119288
0.955650 0.164830 0.119288
1.000000 0.164830 0.119288
0.073700 0.296580 0.119288
0.207950 0.296580 0.119288
0.342200 0.296580 0.119288
0.476450 0.296580 0.119288
0.603900 0.296580 0.119288
0.721150 0.296580 0.119288
0.838400 0.296580 0.119288
0.955650 0.296580 0.119288
1.000000 0.296580 0.119288
0.073700 0.428330 0.119288
0.207950 0.428330 0.119288
0.342200 0.428330 0.119288
0.476450 0.428330 0.119288
0.603900 0.428330 0.119288
0.721150 0.428330 0.119288
0.838400 0.428330 0.119288
0.955650 0.428330 0.119288
1.000000 0.428330 0.119288
0.073700 0.558160 0.119288
0.207950 0.558160 0.119288
0.342200 0.558160 0.119288
0.476450 0.558160 0.119288
0.603900 0.558160 0.119288
0.721150 0.558160 0.119288
0.838400 0.558160 0.119288
0.955650 0.558160 0.119288
1.000000 0.558160 0.119288
0.073700 0.677910 0.119288
0.207950 0.677910 0.119288
0.342200 0.677910 0.119288
0.476450 0.677910 0.119288
0.603900 0.677910 0.119288
0.721150 0.677910 0.119288
0.838400 0.677910 0.119288
0.955650 0.677910 0.119288
1.000000 0.677910 0.119288
0.073700 0.797660 0.119288
0.207950 0.797660 0.119288
0.342200 0.797660 0.119288
0.476450 0.797660 0.119288
0.603900 0.797660 0.119288
0.721150 0.797660 0.119288
0.838400 0.797660 0.119288
0.955650 0.797660 0.119288
1.000000 0.797660 0.119288
0.073700 0.917410 0.119288
0.207950 0.917410 0.119288
0.342200 0.917410 0.119288
0.476450 0.917410 0.119288
0.603900 0.917410 0.119288
0.721150 0.917410 0.119288
0.838400 0.917410 0.119288
0.955650 0.917410 0.119288
1.000000 0.917410 0.119288
0.073700 1.000000 0.119288
0.207950 1.000000 0.119288
0.342200 1.000000 0.119288
0.476450 1.000000 0.119288
0.603900 1.000000 0.119288
0.721150 1.000000 0.119288
0.838400 1.000000 0.119288
0.955650 1.000000 0.119288
1.000000 1.000000 0.119288
0.073700 0.033080 0.242288
0.207950 0.033080 0.242288
0.342200 0.033080 0.242288
0.476450 0.033080 0.242288
0.603900 0.033080 0.242288
0.721150 0.033080 0.242288
0.838400 0.033080 0.242288
0.955650 0.033080 0.242288
1.000000 0.033080 0.242288
0.073700 0.164830 0.242288
0.207950 0.164830 0.242288
0.342200 0.164830 0.242288
0.476450 0.164830 0.242288
0.603900 0.164830 0.242288
0.721150 0.164830 0.242288
0.838400 0.164830 0.242288
0.955650 0.164830 0.242288
1.000000 0.164830 0.242288
0.073700 0.296580 0.242288
0.207950 0.296580 0.242288
0.342200 0.296580 0.242288
0.476450 0.296580 0.242288
0.603900 0.296580 0.242288
0.721150 0.296580 0.242288
0.838400 0.296580 0.242288
0.955650 0.296580 0.242288
1.000000 0.296580 0.242288
0.073700 0.428330 0.242288
0.207950 0.428330 0.242288
0.342200 0.428330 0.242288
0.476450 0.428330 0.242288
0.603900 0.428330 0.242288
0.721150 0.428330 0.242288
0.838400 0.428330 0.242288
0.955650 0.428330 0.242288
1.000000 0.428330 0.242288
0.073700 0.558160 0.242288
0.207950 0.558160 0.242288
0.342200 0.558160 0.242288
0.476450 0.558160 0.242288
0.603900 0.558160 0.242288
0.721150 0.558160 0.242288
0.838400 0.558160 0.242288
0.955650 0.558160 0.242288
1.000000 0.558160 0.242288
0.073700 0.677910 0.242288
0.207950 0.677910 0.242288
0.342200 0.677910 0.242288
0.476450 0.677910 0.242288
0.603900 0.677910 0.242288
0.721150 0.677910 0.242288
0.838400 0.677910 0.242288
0.955650 0.677910 0.242288
1.000000 0.677910 0.242288
0.073700 0.797660 0.242288
0.207950 0.797660 0.242288
0.342200 0.797660 0.242288
0.476450 0.797660 0.242288
0.603900 0.797660 0.242288
0.721150 0.797660 0.242288
0.838400 0.797660 0.242288
0.955650 0.797660 0.242288
1.000000 0.797660 0.242288
0.073700 0.917410 0.242288
0.207950 0.917410 0.242288
0.342200 0.917410 0.242288
0.476450 0.917410 0.242288
0.603900 0.917410 0.242288
0.721150 0.917410 0.242288
0.838400 0.917410 0.242288
0.955650 0.917410 0.242288
1.000000 0.917410 0.242288
0.073700 1.000000 0.242288
0.207950 1.000000 0.242288
0.342200 1.000000 0.242288
0.476450 1.000000 0.242288
0.603900 1.000000 0.242288
0.721150 1.000000 0.242288
0.838400 1.000000 0.242288
0.955650 1.000000 0.242288
1.000000 1.000000 0.242288
0.073700 0.033080 0.365288
0.207950 0.033080 0.365288
0.342200 0.033080 0.365288
0.476450 0.033080 0.365288
0.603900 0.033080 0.365288
0.721150 0.033080 0.365288
0.838400 0.033080 0.365288
0.955650 0.033080 0.365288
1.000000 0.033080 0.365288
0.073700 0.164830 0.365288
0.207950 0.164830 0.365288
0.342200 0.164830 0.365288
0.476450 0.164830 0.365288
0.603900 0.164830 0.365288
0.721150 0.164830 0.365288
0.838400 0.164830 0.365288
0.955650 0.164830 0.365288
1.000000 0.164830 0.365288
0.073700 0.296580 0.365288
0.207950 0.296580 0.365288
0.342200 0.296580 0.365288
0.476450 0.296580 0.365288
0.603900 0.296580 0.365288
0.721150 0.296580 0.365288
0.838400 0.296580 0.365288
0.955650 0.296580 0.365288
1.000000 0.296580 0.365288
0.073700 0.428330 0.365288
0.207950 0.428330 0.365288
0.342200 0.428330 0.365288
0.476450 0.428330 0.365288
0.603900 0.428330 0.365288
0.721150 0.428330 0.365288
0.838400 0.428330 0.365288
0.955650 0.428330 0.365288
1.000000 0.428330 0.365288
0.073700 0.558160 0.365288
0.207950 0.558160 0.365288
0.342200 0.558160 0.365288
0.476450 0.558160 0.365288
0.603900 0.558160 0.365288
0.721150 0.558160 0.365288
0.838400 0.558160 0.365288
0.955650 0.558160 0.365288
1.000000 0.558160 0.365288
0.073700 0.677910 0.365288
0.207950 0.677910 0.365288
0.342200 0.677910 0.365288
0.476450 0.677910 0.365288
0.603900 0.677910 0.365288
0.721150 0.677910 0.365288
0.838400 0.677910 0.365288
0.955650 0.677910 0.365288
1.000000 0.677910 0.365288
0.073700 0.797660 0.365288
0.207950 0.797660 0.365288
0.342200 0.797660 0.365288
0.476450 0.797660 0.365288
0.603900 0.797660 0.365288
0.721150 0.797660 0.365288
0.838400 0.797660 0.365288
0.955650 0.797660 0.365288
1.000000 0.797660 0.365288
0.073700 0.917410 0.365288
0.207950 0.917410 0.365288
0.342200 0.917410 0.365288
0.476450 0.917410 0.365288
0.603900 0.917410 0.365288
0.721150 0.917410 0.365288
0.838400 0.917410 0.365288
0.955650 0.917410 0.365288
1.000000 0.917410 0.365288
0.073700 1.000000 0.365288
0.207950 1.000000 0.365288
0.342200 1.000000 0.365288
0.476450 1.000000 0.365288
0.603900 1.000000 0.365288
0.721150 1.000000 0.365288
0.838400 1.000000 0.365288
0.955650 1.000000 0.365288
1.000000 1.000000 0.365288
0.073700 0.033080 0.488288
0.207950 0.033080 0.488288
0.342200 0.033080 0.488288
0.476450 0.033080 0.488288
0.603900 0.033080 0.488288
0.721150 0.033080 0.488288
0.838400 0.033080 0.488288
0.955650 0.033080 0.488288
1.000000 0.033080 0.488288
0.073700 0.164830 0.488288
0.207950 0.164830 0.488288
0.342200 0.164830 0.488288
0.476450 0.164830 0.488288
0.603900 0.164830 0.488288
0.721150 0.164830 0.488288
0.838400 0.164830 0.488288
0.955650 0.164830 0.488288
1.000000 0.164830 0.488288
0.073700 0.296580 0.488288
0.207950 0.296580 0.488288
0.342200 0.296580 0.488288
0.476450 0.296580 0.488288
0.603900 0.296580 0.488288
0.721150 0.296580 0.488288
0.838400 0.296580 0.488288
0.955650 0.296580 0.488288
1.000000 0.296580 0.488288
0.073700 0.428330 0.488288
0.207950 0.428330 0.488288
0.342200 0.428330 0.488288
0.476450 0.428330 0.488288
0.603900 0.428330 0.488288
0.721150 0.428330 0.488288
0.838400 0.428330 0.488288
0.955650 0.428330 0.488288
1.000000 0.428330 0.488288
0.073700 0.558160 0.488288
0.207950 0.558160 0.488288
0.342200 0.558160 0.488288
0.476450 0.558160 0.488288
0.603900 0.558160 0.488288
0.721150 0.558160 0.488288
0.838400 0.558160 0.488288
0.955650 0.558160 0.488288
1.000000 0.558160 0.488288
0.073700 0.677910 0.488288
0.207950 0.677910 0.488288
0.342200 0.677910 0.488288
0.476450 0.677910 0.488288
0.603900 0.677910 0.488288
0.721150 0.677910 0.488288
0.838400 0.677910 0.488288
0.955650 0.677910 0.488288
1.000000 0.677910 0.488288
0.073700 0.797660 0.488288
0.207950 0.797660 0.488288
0.342200 0.797660 0.488288
0.476450 0.797660 0.488288
0.603900 0.797660 0.488288
0.721150 0.797660 0.488288
0.838400 0.797660 0.488288
0.955650 0.797660 0.488288
1.000000 0.797660 0.488288
0.073700 0.917410 0.488288
0.207950 0.917410 0.488288
0.342200 0.917410 0.488288
0.476450 0.917410 0.488288
0.603900 0.917410 0.488288
0.721150 0.917410 0.488288
0.838400 0.917410 0.488288
0.955650 0.917410 0.488288
1.000000 0.917410 0.488288
0.073700 1.000000 0.488288
0.207950 1.000000 0.488288
0.342200 1.000000 0.488288
0.476450 1.000000 0.488288
0.603900 1.000000 0.488288
0.721150 1.000000 0.488288
0.838400 1.000000 0.488288
0.955650 1.000000 0.488288
1.000000 1.000000 0.488288
0.073700 0.033080 0.609576
0.207950 0.033080 0.609576
0.342200 0.033080 0.609576
0.476450 0.033080 0.609576
0.603900 0.033080 0.609576
0.721150 0.033080 0.609576
0.838400 0.033080 0.609576
0.955650 0.033080 0.609576
1.000000 0.033080 0.609576
0.073700 0.164830 0.609576
0.207950 0.164830 0.609576
0.342200 0.164830 0.609576
0.476450 0.164830 0.609576
0.603900 0.164830 0.609576
0.721150 0.164830 0.609576
0.838400 0.164830 0.609576
0.955650 0.164830 0.609576
1.000000 0.164830 0.609576
0.073700 0.296580 0.609576
0.207950 0.296580 0.609576
0.342200 0.296580 0.609576
0.476450 0.296580 0.609576
0.603900 0.296580 0.609576
0.721150 0.296580 0.609576
0.838400 0.296580 0.609576
0.955650 0.296580 0.609576
1.000000 0.296580 0.609576
0.073700 0.428330 0.609576
0.207950 0.428330 0.609576
0.342200 0.428330 0.609576
0.476450 0.428330 0.609576
0.603900 0.428330 0.609576
0.721150 0.428330 0.609576
0.838400 0.428330 0.609576
0.955650 0.428330 0.609576
1.000000 0.428330 0.609576
0.073700 0.558160 0.609576
0.207950 0.558160 0.609576
0.342200 0.558160 0.609576
0.476450 0.558160 0.609576
0.603900 0.558160 0.609576
0.721150 0.558160 0.609576
0.838400 0.558160 0.609576
0.955650 0.558160 0.609576
1.000000 0.558160 0.609576
0.073700 0.677910 0.609576
0.207950 0.677910 0.609576
0.342200 0.677910 0.609576
0.476450 0.677910 0.609576
0.603900 0.677910 0.609576
0.721150 0.677910 0.609576
0.838400 0.677910 0.609576
0.955650 0.677910 0.609576
1.000000 0.677910 0.609576
0.073700 0.797660 0.609576
0.207950 0.797660 0.609576
0.342200 0.797660 0.609576
0.476450 0.797660 0.609576
0.603900 0.797660 0.609576
0.721150 0.797660 0.609576
0.838400 0.797660 0.609576
0.955650 0.797660 0.609576
1.000000 0.797660 0.609576
0.073700 0.917410 0.609576
0.207950 0.917410 0.609576
0.342200 0.917410 0.609576
0.476450 0.917410 0.609576
0.603900 0.917410 0.609576
0.721150 0.917410 0.609576
0.838400 0.917410 0.609576
0.955650 0.917410 0.609576
1.000000 0.917410 0.609576
0.073700 1.000000 0.609576
0.207950 1.000000 0.609576
0.342200 1.000000 0.609576
0.476450 1.000000 0.609576
0.603900 1.000000 0.609576
0.721150 1.000000 0.609576
0.838400 1.000000 0.609576
0.955650 1.000000 0.609576
1.000000 1.000000 0.609576
0.073700 0.033080 0.730576
0.207950 0.033080 0.730576
0.342200 0.033080 0.730576
0.476450 0.033080 0.730576
0.603900 0.033080 0.730576
0.721150 0.033080 0.730576
0.838400 0.033080 0.730576
0.955650 0.033080 0.730576
1.000000 0.033080 0.730576
0.073700 0.164830 0.730576
0.207950 0.164830 0.730576
0.342200 0.164830 0.730576
0.476450 0.164830 0.730576
0.603900 0.164830 0.730576
0.721150 0.164830 0.730576
0.838400 0.164830 0.730576
0.955650 0.164830 0.730576
1.000000 0.164830 0.730576
0.073700 0.296580 0.730576
0.207950 0.296580 0.730576
0.342200 0.296580 0.730576
0.476450 0.296580 0.730576
0.603900 0.296580 0.730576
0.721150 0.296580 0.730576
0.838400 0.296580 0.730576
0.955650 0.296580 0.730576
1.000000 0.296580 0.730576
0.073700 0.428330 0.730576
0.207950 0.428330 0.730576
0.342200 0.428330 0.730576
0.476450 0.428330 0.730576
0.603900 0.428330 0.730576
0.721150 0.428330 0.730576
0.838400 0.428330 0.730576
0.955650 0.428330 0.730576
1.000000 0.428330 0.730576
0.073700 0.558160 0.730576
0.207950 0.558160 0.730576
0.342200 0.558160 0.730576
0.476450 0.558160 0.730576
0.603900 0.558160 0.730576
0.721150 0.558160 0.730576
0.838400 0.558160 0.730576
0.955650 0.558160 0.730576
1.000000 0.558160 0.730576
0.073700 0.677910 0.730576
0.207950 0.677910 0.730576
0.342200 0.677910 0.730576
0.476450 0.677910 0.730576
0.603900 0.677910 0.730576
0.721150 0.677910 0.730576
0.838400 0.677910 0.730576
0.955650 0.677910 0.730576
1.000000 0.677910 0.730576
0.073700 0.797660 0.730576
0.207950 0.797660 0.730576
0.342200 0.797660 0.730576
0.476450 0.797660 0.730576
0.603900 0.797660 0.730576
0.721150 0.797660 0.730576
0.838400 0.797660 0.730576
0.955650 0.797660 0.730576
1.000000 0.797660 0.730576
0.073700 0.917410 0.730576
0.207950 0.917410 0.730576
0.342200 0.917410 0.730576
0.476450 0.917410 0.730576
0.603900 0.917410 0.730576
0.721150 0.917410 0.730576
0.838400 0.917410 0.730576
0.955650 0.917410 0.730576
1.000000 0.917410 0.730576
0.073700 1.000000 0.730576
0.207950 1.000000 0.730576
0.342200 1.000000 0.730576
0.476450 1.000000 0.730576
0.603900 1.000000 0.730576
0.721150 1.000000 0.730576
0.838400 1.000000 0.730576
0.955650 1.000000 0.730576
1.000000 1.000000 0.730576
0.073700 0.033080 0.851576
0.207950 0.033080 0.851576
0.342200 0.033080 0.851576
0.476450 0.033080 0.851576
0.603900 0.033080 0.851576
0.721150 0.033080 0.851576
0.838400 0.033080 0.851576
0.955650 0.033080 0.851576
1.000000 0.033080 0.851576
0.073700 0.164830 0.851576
0.207950 0.164830 0.851576
0.342200 0.164830 0.851576
0.476450 0.164830 0.851576
0.603900 0.164830 0.851576
0.721150 0.164830 0.851576
0.838400 0.164830 0.851576
0.955650 0.164830 0.851576
1.000000 0.164830 0.851576
0.073700 0.296580 0.851576
0.207950 0.296580 0.851576
0.342200 0.296580 0.851576
0.476450 0.296580 0.851576
0.603900 0.296580 0.851576
0.721150 0.296580 0.851576
0.838400 0.296580 0.851576
0.955650 0.296580 0.851576
1.000000 0.296580 0.851576
0.073700 0.428330 0.851576
0.207950 0.428330 0.851576
0.342200 0.428330 0.851576
0.476450 0.428330 0.851576
0.603900 0.428330 0.851576
0.721150 0.428330 0.851576
0.838400 0.428330 0.851576
0.955650 0.428330 0.851576
1.000000 0.428330 0.851576
0.073700 0.558160 0.851576
0.207950 0.558160 0.851576
0.342200 0.558160 0.851576
0.476450 0.558160 0.851576
0.603900 0.558160 0.851576
0.721150 0.558160 0.851576
0.838400 0.558160 0.851576
0.955650 0.558160 0.851576
1.000000 0.558160 0.851576
0.073700 0.677910 0.851576
0.207950 0.677910 0.851576
0.342200 0.677910 0.851576
0.476450 0.677910 0.851576
0.603900 0.677910 0.851576
0.721150 0.677910 0.851576
0.838400 0.677910 0.851576
0.955650 0.677910 0.851576
1.000000 0.677910 0.851576
0.073700 0.797660 0.851576
0.207950 0.797660 0.851576
0.342200 0.797660 0.851576
0.476450 0.797660 0.851576
0.603900 0.797660 0.851576
0.721150 0.797660 0.851576
0.838400 0.797660 0.851576
0.955650 0.797660 0.851576
1.000000 0.797660 0.851576
0.073700 0.917410 0.851576
0.207950 0.917410 0.851576
0.342200 0.917410 0.851576
0.476450 0.917410 0.851576
0.603900 0.917410 0.851576
0.721150 0.917410 0.851576
0.838400 0.917410 0.851576
0.955650 0.917410 0.851576
1.000000 0.917410 0.851576
0.073700 1.000000 0.851576
0.207950 1.000000 0.851576
0.342200 1.000000 0.851576
0.476450 1.000000 0.851576
0.603900 1.000000 0.851576
0.721150 1.000000 0.851576
0.838400 1.000000 0.851576
0.955650 1.000000 0.851576
1.000000 1.000000 0.851576
0.073700 0.033080 0.972576
0.207950 0.033080 0.972576
0.342200 0.033080 0.972576
0.476450 0.033080 0.972576
0.603900 0.033080 0.972576
0.721150 0.033080 0.972576
0.838400 0.033080 0.972576
0.955650 0.033080 0.972576
1.000000 0.033080 0.972576
0.073700 0.164830 0.972576
0.207950 0.164830 0.972576
0.342200 0.164830 0.972576
0.476450 0.164830 0.972576
0.603900 0.164830 0.972576
0.721150 0.164830 0.972576
0.838400 0.164830 0.972576
0.955650 0.164830 0.972576
1.000000 0.164830 0.972576
0.073700 0.296580 0.972576
0.207950 0.296580 0.972576
0.342200 0.296580 0.972576
0.476450 0.296580 0.972576
0.603900 0.296580 0.972576
0.721150 0.296580 0.972576
0.838400 0.296580 0.972576
0.955650 0.296580 0.972576
1.000000 0.296580 0.972576
0.073700 0.428330 0.972576
0.207950 0.428330 0.972576
0.342200 0.428330 0.972576
0.476450 0.428330 0.972576
0.603900 0.428330 0.972576
0.721150 0.428330 0.972576
0.838400 0.428330 0.972576
0.955650 0.428330 0.972576
1.000000 0.428330 0.972576
0.073700 0.558160 0.972576
0.207950 0.558160 0.972576
0.342200 0.558160 0.972576
0.476450 0.558160 0.972576
0.603900 0.558160 0.972576
0.721150 0.558160 0.972576
0.838400 0.558160 0.972576
0.955650 0.558160 0.972576
1.000000 0.558160 0.972576
0.073700 0.677910 0.972576
0.207950 0.677910 0.972576
0.342200 0.677910 0.972576
0.476450 0.677910 0.972576
0.603900 0.677910 0.972576
0.721150 0.677910 0.972576
0.838400 0.677910 0.972576
0.955650 0.677910 0.972576
1.000000 0.677910 0.972576
0.073700 0.797660 0.972576
0.207950 0.797660 0.972576
0.342200 0.797660 0.972576
0.476450 0.797660 0.972576
0.603900 0.797660 0.972576
0.721150 0.797660 0.972576
0.838400 0.797660 0.972576
0.955650 0.797660 0.972576
1.000000 0.797660 0.972576
0.073700 0.917410 0.972576
0.207950 0.917410 0.972576
0.342200 0.917410 0.972576
0.476450 0.917410 0.972576
0.603900 0.917410 0.972576
0.721150 0.917410 0.972576
0.838400 0.917410 0.972576
0.955650 0.917410 0.972576
1.000000 0.917410 0.972576
0.073700 1.000000 0.972576
0.207950 1.000000 0.972576
0.342200 1.000000 0.972576
0.476450 1.000000 0.972576
0.603900 1.000000 0.972576
0.721150 1.000000 0.972576
0.838400 1.000000 0.972576
0.955650 1.000000 0.972576
1.000000 1.000000 0.972576
